; generated by PrusaSlicer 2.1.1+win64 on 2020-02-17 at 11:22:32 UTC

; 

; external perimeters extrusion width = 0.45mm
; perimeters extrusion width = 0.45mm
; infill extrusion width = 0.45mm
; solid infill extrusion width = 0.45mm
; top infill extrusion width = 0.40mm
; first layer extrusion width = 0.42mm

M73 P0 R15
M73 Q0 S15
M201 X1000 Y1000 Z1000 E5000 ; sets maximum accelerations, mm/sec^2
M203 X200 Y200 Z12 E120 ; sets maximum feedrates, mm/sec
M204 P1250 R1250 T1250 ; sets acceleration (P, T) and retract acceleration (R), mm/sec^2
M205 X8.00 Y8.00 Z0.40 E1.50 ; sets the jerk limits, mm/sec
M205 S0 T0 ; sets the minimum extruding and travel feed rate, mm/sec
M107
M862.3 P "MK3S" ; printer model check
M862.1 P0.4 ; nozzle diameter check
M115 U3.8.1 ; tell printer latest fw version
G90 ; use absolute coordinates
M83 ; extruder relative mode
M104 S215 ; set extruder temp
M140 S60 ; set bed temp
M190 S60 ; wait for bed temp
M109 S215 ; wait for extruder temp
G28 W ; home all without mesh bed level
G80 ; mesh bed leveling
G1 Y-3.0 F1000.0 ; go outside print area
G92 E0.0
G1 X60.0 E9.0 F1000.0 ; intro line
M73 Q0 S15
M73 P0 R15
G1 X100.0 E12.5 F1000.0 ; intro line
G92 E0.0
M221 S95
G21 ; set units to millimeters
G90 ; use absolute coordinates
M83 ; use relative distances for extrusion
M900 K30 ; Filament gcode
;BEFORE_LAYER_CHANGE
G92 E0.0
;0.2


G1 E-0.80000 F2100.00000
G1 Z0.600 F10800.000
;AFTER_LAYER_CHANGE
;0.2
G1 X111.559 Y92.278
G1 Z0.200
G1 E0.80000 F2100.00000
M204 S1000
G1 F1200
G1 X112.280 Y91.558 E0.03193
G1 X113.134 Y90.993 E0.03210
G1 X114.078 Y90.612 E0.03193
G1 X115.085 Y90.426 E0.03210
G1 X134.506 Y90.409 E0.60892
G1 X158.819 Y90.571 E0.76233
G1 X159.732 Y90.710 E0.02897
G1 X160.611 Y91.014 E0.02915
G1 X161.419 Y91.472 E0.02915
G1 X162.131 Y92.070 E0.02915
G1 X162.712 Y92.774 E0.02862
G1 X163.156 Y93.565 E0.02845
G1 X163.453 Y94.423 E0.02845
G1 X163.593 Y95.319 E0.02845
G1 X163.604 Y114.658 E0.60634
G1 X163.504 Y115.654 E0.03141
G1 X163.209 Y116.618 E0.03158
G1 X162.733 Y117.499 E0.03141
G1 X162.094 Y118.270 E0.03141
G1 X161.390 Y118.852 E0.02862
G1 X160.599 Y119.296 E0.02845
G1 X159.742 Y119.592 E0.02845
G1 X158.845 Y119.732 E0.02845
G1 X139.497 Y119.743 E0.60665
G1 X115.195 Y119.581 E0.76198
G1 X114.281 Y119.443 E0.02897
G1 X113.403 Y119.139 E0.02915
G1 X112.594 Y118.680 E0.02915
G1 X111.883 Y118.082 E0.02915
G1 X111.267 Y117.327 E0.03054
G1 X110.804 Y116.464 E0.03071
G1 X110.515 Y115.534 E0.03054
G1 X110.410 Y114.566 E0.03054
G1 X110.416 Y95.238 E0.60600
G1 X110.520 Y94.443 E0.02514
G1 X110.750 Y93.669 E0.02532
G1 X111.099 Y92.941 E0.02532
G1 X111.525 Y92.327 E0.02343
G1 F8640
G1 X112.280 Y91.558 E-0.24878
G1 X113.134 Y90.993 E-0.23642
G1 X114.078 Y90.612 E-0.23514
G1 X114.247 Y90.581 E-0.03965
G1 E-0.04000 F2100.00000
G1 Z0.800 F10800.000
G1 X137.121 Y91.562
G1 Z0.200
G1 E0.80000 F2100.00000
G1 F1200
G1 X137.365 Y91.420 E0.00885
G1 X138.973 Y90.939 E0.05264
G1 X159.009 Y90.942 E0.62822
G1 X160.131 Y91.188 E0.03602
G1 X161.128 Y91.695 E0.03505
G1 X162.256 Y92.752 E0.04847
G1 X162.919 Y93.885 E0.04117
G1 X163.227 Y95.142 E0.04058
G1 X163.227 Y115.162 E0.62769
G1 X162.873 Y116.530 E0.04431
G1 X162.224 Y117.593 E0.03906
G1 X161.566 Y118.265 E0.02951
G1 X160.864 Y118.781 E0.02730
G1 X159.060 Y119.366 E0.05944
G1 X139.000 Y119.366 E0.62898
G1 X137.631 Y119.009 E0.04436
G1 X136.898 Y118.585 E0.02655
G1 X136.648 Y118.732 E0.00910
G1 X135.041 Y119.213 E0.05261
G1 X114.991 Y119.213 E0.62865
G1 X113.622 Y118.860 E0.04431
G1 X112.559 Y118.211 E0.03906
G1 X111.887 Y117.552 E0.02951
G1 X111.371 Y116.851 E0.02730
G1 X110.787 Y115.047 E0.05944
G1 X110.787 Y94.990 E0.62887
G1 X111.118 Y93.673 E0.04257
G1 X111.845 Y92.489 E0.04355
G1 X112.449 Y91.885 E0.02678
G1 X113.040 Y91.429 E0.02340
G1 X114.954 Y90.786 E0.06332
G1 X134.990 Y90.790 E0.62821
G1 X136.079 Y91.021 E0.03490
G1 X136.929 Y91.418 E0.02943
G1 X137.073 Y91.526 E0.00565
G1 X137.092 Y92.035 F10800.000
G1 F1200
G1 X137.503 Y91.772 E0.01531
G1 X139.002 Y91.316 E0.04911
G1 X158.988 Y91.319 E0.62667
G1 X160.025 Y91.550 E0.03331
G1 X160.931 Y92.017 E0.03195
G1 X161.977 Y93.007 E0.04515
G1 X162.560 Y94.003 E0.03618
G1 X162.850 Y95.166 E0.03758
G1 X162.850 Y115.138 E0.62622
G1 X162.537 Y116.357 E0.03947
G1 X161.914 Y117.377 E0.03747
G1 X161.307 Y117.991 E0.02705
G1 X160.716 Y118.433 E0.02316
G1 X159.030 Y118.989 E0.05565
G1 X139.025 Y118.989 E0.62725
G1 X137.754 Y118.652 E0.04123
G1 X136.888 Y118.140 E0.03153
G1 X136.510 Y118.380 E0.01404
G1 X135.012 Y118.836 E0.04910
G1 X115.014 Y118.836 E0.62702
G1 X113.795 Y118.524 E0.03947
G1 X112.775 Y117.900 E0.03747
G1 X112.161 Y117.294 E0.02705
G1 X111.719 Y116.702 E0.02316
G1 X111.164 Y115.017 E0.05565
G1 X111.164 Y95.014 E0.62716
G1 X111.476 Y93.795 E0.03946
G1 X112.127 Y92.741 E0.03885
G1 X112.706 Y92.161 E0.02571
G1 X113.244 Y91.748 E0.02127
G1 X114.984 Y91.164 E0.05755
G1 X134.970 Y91.167 E0.62664
G1 X135.939 Y91.372 E0.03104
G1 X136.744 Y91.748 E0.02786
G1 X137.045 Y91.996 E0.01225
G1 X137.063 Y92.511 F10800.000
G1 F1200
G1 X137.643 Y92.123 E0.02190
G1 X139.030 Y91.693 E0.04554
G1 X158.967 Y91.696 E0.62509
G1 X159.917 Y91.912 E0.03055
G1 X160.732 Y92.338 E0.02884
G1 X161.697 Y93.261 E0.04186
G1 X162.201 Y94.122 E0.03128
G1 X162.473 Y95.190 E0.03455
G1 X162.473 Y115.115 E0.62473
G1 X162.200 Y116.185 E0.03463
G1 X161.604 Y117.161 E0.03586
G1 X161.049 Y117.716 E0.02460
G1 X160.565 Y118.086 E0.01912
G1 X158.999 Y118.611 E0.05179
G1 X139.050 Y118.611 E0.62548
G1 X137.878 Y118.295 E0.03805
G1 X137.142 Y117.852 E0.02696
G1 X136.927 Y117.657 E0.00907
G1 X136.370 Y118.029 E0.02100
G1 X134.983 Y118.459 E0.04553
G1 X115.038 Y118.459 E0.62538
G1 X113.967 Y118.187 E0.03463
G1 X112.991 Y117.591 E0.03586
G1 X112.437 Y117.036 E0.02460
G1 X112.066 Y116.552 E0.01912
G1 X111.541 Y114.985 E0.05179
G1 X111.541 Y95.038 E0.62545
G1 X111.813 Y93.967 E0.03463
G1 X112.409 Y92.991 E0.03586
G1 X112.964 Y92.437 E0.02460
G1 X113.448 Y92.066 E0.01912
G1 X115.015 Y91.541 E0.05180
G1 X134.951 Y91.544 E0.62507
G1 X135.799 Y91.723 E0.02719
G1 X136.559 Y92.078 E0.02631
G1 X137.017 Y92.472 E0.01894
G1 X137.075 Y93.029 F10800.000
G1 F1200
G1 X137.304 Y92.805 E0.01006
G1 X137.786 Y92.473 E0.01832
G1 X139.060 Y92.070 E0.04191
G1 X158.945 Y92.074 E0.62347
G1 X159.807 Y92.274 E0.02775
G1 X160.531 Y92.658 E0.02571
G1 X161.416 Y93.514 E0.03860
G1 X161.843 Y94.242 E0.02647
G1 X162.096 Y95.214 E0.03149
G1 X162.096 Y115.090 E0.62319
G1 X161.843 Y116.062 E0.03149
G1 X161.322 Y116.910 E0.03119
G1 X160.792 Y117.440 E0.02350
G1 X160.361 Y117.767 E0.01695
G1 X158.968 Y118.234 E0.04607
G1 X139.076 Y118.234 E0.62371
G1 X138.005 Y117.939 E0.03482
G1 X137.359 Y117.542 E0.02379
G1 X136.930 Y117.133 E0.01860
G1 X136.709 Y117.347 E0.00965
G1 X136.228 Y117.679 E0.01831
G1 X134.954 Y118.082 E0.04190
G1 X115.062 Y118.082 E0.62369
G1 X114.090 Y117.829 E0.03149
G1 X113.242 Y117.308 E0.03119
G1 X112.712 Y116.778 E0.02350
G1 X112.385 Y116.348 E0.01695
G1 X111.918 Y114.955 E0.04607
G1 X111.918 Y95.062 E0.62373
G1 X112.171 Y94.090 E0.03149
G1 X112.691 Y93.242 E0.03119
G1 X113.222 Y92.712 E0.02350
G1 X113.652 Y92.385 E0.01695
G1 X115.045 Y91.918 E0.04608
G1 X134.931 Y91.921 E0.62350
G1 X135.659 Y92.074 E0.02333
G1 X136.374 Y92.407 E0.02472
G1 X137.031 Y92.989 E0.02751
G1 X137.092 Y93.555 F10800.000
G1 F1200
G1 X137.539 Y93.101 E0.01998
G1 X137.931 Y92.822 E0.01508
G1 X139.090 Y92.447 E0.03821
G1 X158.923 Y92.451 E0.62185
G1 X159.655 Y92.620 E0.02354
G1 X160.291 Y92.950 E0.02248
G1 X161.106 Y93.730 E0.03537
G1 X161.486 Y94.366 E0.02323
G1 X161.719 Y95.239 E0.02834
G1 X161.719 Y115.065 E0.62162
G1 X161.486 Y115.937 E0.02831
G1 X161.040 Y116.658 E0.02658
G1 X160.535 Y117.164 E0.02241
G1 X160.159 Y117.448 E0.01477
G1 X158.938 Y117.857 E0.04038
G1 X139.101 Y117.857 E0.62196
G1 X138.180 Y117.604 E0.02996
G1 X137.575 Y117.233 E0.02226
G1 X136.924 Y116.598 E0.02851
G1 X136.475 Y117.051 E0.02001
G1 X136.082 Y117.330 E0.01508
G1 X134.923 Y117.705 E0.03820
G1 X115.087 Y117.705 E0.62195
G1 X114.215 Y117.473 E0.02831
G1 X113.494 Y117.027 E0.02658
G1 X112.988 Y116.521 E0.02241
G1 X112.704 Y116.145 E0.01477
G1 X112.295 Y114.924 E0.04038
G1 X112.295 Y95.087 E0.62198
G1 X112.527 Y94.215 E0.02831
G1 X112.973 Y93.494 E0.02658
G1 X113.479 Y92.988 E0.02241
G1 X113.855 Y92.704 E0.01477
G1 X115.076 Y92.295 E0.04039
G1 X134.911 Y92.298 E0.62190
G1 X135.558 Y92.438 E0.02076
G1 X136.186 Y92.735 E0.02180
G1 X137.047 Y93.515 E0.03641
G1 X137.027 Y94.164 F10800.000
G1 F1200
G1 X137.771 Y93.398 E0.03349
G1 X138.126 Y93.146 E0.01362
G1 X139.120 Y92.824 E0.03276
G1 X158.902 Y92.828 E0.62026
G1 X159.506 Y92.967 E0.01942
G1 X160.053 Y93.244 E0.01923
G1 X160.798 Y93.948 E0.03216
G1 X161.130 Y94.493 E0.01998
G1 X161.341 Y95.265 E0.02512
G1 X161.341 Y115.039 E0.61999
G1 X161.130 Y115.811 E0.02508
G1 X160.758 Y116.407 E0.02203
G1 X160.278 Y116.887 E0.02132
G1 X159.957 Y117.128 E0.01257
G1 X158.907 Y117.480 E0.03472
G1 X139.127 Y117.480 E0.62021
G1 X138.354 Y117.269 E0.02510
G1 X137.791 Y116.923 E0.02073
G1 X137.278 Y116.416 E0.02262
G1 X136.971 Y116.008 E0.01599
G1 X136.242 Y116.754 E0.03269
G1 X135.888 Y117.006 E0.01363
G1 X134.894 Y117.328 E0.03276
G1 X115.113 Y117.328 E0.62021
G1 X114.342 Y117.117 E0.02508
G1 X113.745 Y116.745 E0.02203
G1 X113.265 Y116.264 E0.02132
G1 X113.024 Y115.944 E0.01257
G1 X112.672 Y114.894 E0.03472
G1 X112.672 Y95.113 E0.62021
G1 X112.883 Y94.342 E0.02508
G1 X113.255 Y93.745 E0.02203
G1 X113.736 Y93.265 E0.02132
G1 X114.056 Y93.024 E0.01257
G1 X115.106 Y92.672 E0.03473
G1 X134.889 Y92.676 E0.62028
G1 X135.454 Y92.801 E0.01813
G1 X135.996 Y93.062 E0.01888
G1 X136.756 Y93.761 E0.03238
G1 X136.994 Y94.114 E0.01335
G1 X136.891 Y94.899 F10800.000
G1 F1200
G1 X137.165 Y94.901 E0.00860
G1 X137.271 Y94.579 E0.01061
G1 X137.524 Y94.182 E0.01476
G1 X138.026 Y93.677 E0.02234
G1 X138.319 Y93.471 E0.01121
G1 X139.149 Y93.201 E0.02740
G1 X158.881 Y93.205 E0.61866
G1 X159.360 Y93.315 E0.01542
G1 X159.817 Y93.540 E0.01597
G1 X160.493 Y94.170 E0.02897
G1 X160.775 Y94.623 E0.01672
G1 X160.964 Y95.292 E0.02182
G1 X160.964 Y115.012 E0.61830
G1 X160.775 Y115.681 E0.02179
G1 X160.477 Y116.155 E0.01755
G1 X160.021 Y116.611 E0.02022
G1 X159.756 Y116.807 E0.01034
G1 X158.876 Y117.103 E0.02911
G1 X139.153 Y117.103 E0.61840
M73 Q7 S14
M73 P7 R14
G1 X138.485 Y116.914 E0.02179
G1 X138.011 Y116.616 E0.01755
G1 X137.555 Y116.160 E0.02022
G1 X137.357 Y115.894 E0.01039
G1 X137.123 Y115.231 E0.02203
G1 X136.853 Y115.235 E0.00846
G1 X136.742 Y115.573 E0.01116
G1 X136.490 Y115.970 E0.01475
G1 X135.988 Y116.476 E0.02234
G1 X135.695 Y116.681 E0.01121
G1 X134.864 Y116.951 E0.02739
G1 X115.140 Y116.951 E0.61843
G1 X114.471 Y116.762 E0.02179
G1 X113.997 Y116.464 E0.01755
G1 X113.541 Y116.008 E0.02022
G1 X113.345 Y115.743 E0.01034
G1 X113.049 Y114.863 E0.02911
G1 X113.049 Y95.140 E0.61840
G1 X113.238 Y94.471 E0.02179
G1 X113.536 Y93.997 E0.01755
G1 X113.992 Y93.541 E0.02022
G1 X114.257 Y93.345 E0.01034
G1 X115.137 Y93.049 E0.02911
G1 X134.867 Y93.053 E0.61863
G1 X135.347 Y93.163 E0.01542
G1 X135.804 Y93.387 E0.01597
G1 X136.480 Y94.019 E0.02900
G1 X136.741 Y94.425 E0.01515
G1 X136.873 Y94.842 E0.01369
G1 F8640
G1 X137.165 Y94.901 E-0.06890
G1 X137.271 Y94.579 E-0.07814
G1 X137.524 Y94.182 E-0.10871
G1 X138.026 Y93.677 E-0.16450
G1 X138.319 Y93.471 E-0.08256
G1 X139.149 Y93.201 E-0.20175
G1 X139.390 Y93.201 E-0.05545
G1 E-0.04000 F2100.00000
G1 Z0.800 F10800.000
G1 X135.571 Y93.685
G1 Z0.200
G1 E0.80000 F2100.00000
G1 F1200
G1 X136.176 Y94.243 E0.02580
G1 X136.408 Y94.605 E0.01347
G1 X136.574 Y95.168 E0.01841
G1 X136.574 Y114.832 E0.61655
G1 X136.408 Y115.396 E0.01842
G1 X136.183 Y115.750 E0.01318
G1 X135.752 Y116.181 E0.01911
G1 X135.544 Y116.334 E0.00808
G1 X134.832 Y116.574 E0.02354
G1 X115.168 Y116.574 E0.61656
G1 X114.604 Y116.408 E0.01842
G1 X114.250 Y116.183 E0.01318
G1 X113.819 Y115.752 E0.01911
G1 X113.666 Y115.544 E0.00808
G1 X113.426 Y114.832 E0.02354
G1 X113.426 Y95.168 E0.61656
G1 X113.592 Y94.604 E0.01842
G1 X113.817 Y94.250 E0.01318
G1 X114.248 Y93.819 E0.01911
G1 X114.456 Y93.666 E0.00808
G1 X115.168 Y93.426 E0.02355
G1 X134.846 Y93.430 E0.61699
G1 X135.205 Y93.513 E0.01157
G1 X135.517 Y93.660 E0.01080
G1 X135.356 Y94.001 F10800.000
G1 F1200
G1 X135.901 Y94.501 E0.02320
G1 X136.056 Y94.742 E0.00898
G1 X136.197 Y95.198 E0.01495
G1 X136.197 Y114.802 E0.61469
G1 X136.056 Y115.258 E0.01496
G1 X135.902 Y115.498 E0.00892
G1 X135.496 Y115.904 E0.01800
G1 X135.346 Y116.012 E0.00579
G1 X134.801 Y116.197 E0.01806
G1 X115.198 Y116.197 E0.61465
G1 X114.742 Y116.056 E0.01496
G1 X114.502 Y115.902 E0.00892
G1 X114.096 Y115.496 E0.01800
G1 X113.988 Y115.346 E0.00579
G1 X113.803 Y114.801 E0.01806
G1 X113.803 Y95.198 E0.61465
G1 X113.944 Y94.742 E0.01496
G1 X114.098 Y94.502 E0.00892
G1 X114.504 Y94.096 E0.01800
G1 X114.654 Y93.988 E0.00579
G1 X115.199 Y93.803 E0.01806
G1 X134.824 Y93.807 E0.61533
G1 X135.062 Y93.862 E0.00767
G1 X135.301 Y93.975 E0.00829
G1 X134.919 Y94.211 F10800.000
G1 F1200
G1 X135.192 Y94.340 E0.00947
G1 X135.623 Y94.757 E0.01880
G1 X135.707 Y94.885 E0.00479
G1 X135.820 Y95.229 E0.01136
G1 X135.820 Y114.771 E0.61271
G1 X135.707 Y115.115 E0.01136
G1 X135.622 Y115.244 E0.00484
G1 X135.242 Y115.625 E0.01686
G1 X135.152 Y115.688 E0.00345
G1 X134.769 Y115.820 E0.01270
G1 X115.229 Y115.820 E0.61266
G1 X114.885 Y115.707 E0.01136
G1 X114.756 Y115.622 E0.00484
G1 X114.375 Y115.242 E0.01686
G1 X114.312 Y115.152 E0.00345
G1 X114.180 Y114.769 E0.01270
G1 X114.180 Y95.229 E0.61266
G1 X114.293 Y94.885 E0.01136
G1 X114.378 Y94.756 E0.00484
G1 X114.758 Y94.375 E0.01686
G1 X114.848 Y94.312 E0.00345
G1 X115.231 Y94.180 E0.01269
G1 X134.802 Y94.184 E0.61364
G1 X134.860 Y94.198 E0.00189
G1 X134.782 Y94.564 F10800.000
G1 F1200
G1 X135.000 Y94.667 E0.00757
G1 X135.343 Y95.010 E0.01522
G1 X135.443 Y95.264 E0.00856
G1 X135.443 Y114.736 E0.61050
G1 X135.343 Y114.990 E0.00856
G1 X134.990 Y115.343 E0.01566
G1 X134.736 Y115.443 E0.00856
G1 X115.264 Y115.443 E0.61050
G1 X115.010 Y115.343 E0.00856
G1 X114.657 Y114.990 E0.01566
G1 X114.557 Y114.736 E0.00856
G1 X114.557 Y95.264 E0.61050
G1 X114.657 Y95.010 E0.00856
G1 X115.010 Y94.657 E0.01566
G1 X115.264 Y94.557 E0.00856
G1 X134.722 Y94.557 E0.61009
G1 X134.763 Y94.963 F10800.000
G1 F1200
G1 X135.037 Y95.237 E0.01215
G1 X135.066 Y95.306 E0.00235
G1 X135.066 Y114.694 E0.60788
G1 X135.037 Y114.763 E0.00235
G1 X134.763 Y115.037 E0.01215
G1 X134.694 Y115.066 E0.00235
G1 X115.306 Y115.066 E0.60788
G1 X115.237 Y115.037 E0.00235
G1 X114.963 Y114.763 E0.01215
G1 X114.934 Y114.694 E0.00235
G1 X114.934 Y95.306 E0.60788
G1 X114.963 Y95.237 E0.00235
G1 X115.237 Y94.963 E0.01215
G1 X115.306 Y94.934 E0.00235
G1 X134.708 Y94.940 E0.60831
G1 X134.578 Y95.311 F10800.000
G1 F1200
G1 X134.689 Y95.422 E0.00490
G1 X134.689 Y114.578 E0.60063
G1 X134.578 Y114.689 E0.00490
G1 X115.422 Y114.689 E0.60063
G1 X115.311 Y114.578 E0.00490
G1 X115.311 Y95.422 E0.60063
G1 X115.422 Y95.311 E0.00490
G1 X134.518 Y95.311 E0.59875
G1 F8640
G1 X134.689 Y95.422 E-0.04690
G1 X134.689 Y98.510 E-0.71310
G1 E-0.04000 F2100.00000
G1 Z0.800 F10800.000
G1 X139.181 Y93.578
G1 Z0.200
G1 E0.80000 F2100.00000
G1 F1200
G1 X158.859 Y93.582 E0.61699
G1 X159.219 Y93.665 E0.01157
G1 X159.584 Y93.838 E0.01268
G1 X160.189 Y94.395 E0.02580
G1 X160.421 Y94.757 E0.01347
G1 X160.587 Y95.320 E0.01841
G1 X160.587 Y114.984 E0.61655
G1 X160.421 Y115.548 E0.01842
G1 X160.196 Y115.902 E0.01318
G1 X159.765 Y116.334 E0.01911
G1 X159.557 Y116.486 E0.00808
G1 X158.846 Y116.726 E0.02354
G1 X139.181 Y116.726 E0.61656
G1 X138.618 Y116.560 E0.01842
G1 X138.263 Y116.335 E0.01318
G1 X137.832 Y115.904 E0.01911
G1 X137.679 Y115.696 E0.00808
G1 X137.439 Y114.984 E0.02354
G1 X137.439 Y95.320 E0.61656
G1 X137.605 Y94.757 E0.01842
G1 X137.831 Y94.402 E0.01318
G1 X138.262 Y93.971 E0.01911
G1 X138.470 Y93.818 E0.00808
G1 X139.124 Y93.597 E0.02167
G1 X138.667 Y94.141 F10800.000
G1 F1200
G1 X139.212 Y93.955 E0.01806
G1 X158.837 Y93.959 E0.61533
G1 X159.076 Y94.014 E0.00767
G1 X159.396 Y94.165 E0.01109
G1 X159.914 Y94.654 E0.02233
