; generated by PrusaSlicer 2.1.1+win64 on 2020-02-18 at 16:44:49 UTC

; 

; external perimeters extrusion width = 0.45mm
; perimeters extrusion width = 0.45mm
; infill extrusion width = 0.45mm
; solid infill extrusion width = 0.45mm
; top infill extrusion width = 0.40mm
; first layer extrusion width = 0.42mm

M73 P0 R23
M73 Q0 S23
M201 X1000 Y1000 Z1000 E5000 ; sets maximum accelerations, mm/sec^2
M203 X200 Y200 Z12 E120 ; sets maximum feedrates, mm/sec
M204 P1250 R1250 T1250 ; sets acceleration (P, T) and retract acceleration (R), mm/sec^2
M205 X8.00 Y8.00 Z0.40 E4.50 ; sets the jerk limits, mm/sec
M205 S0 T0 ; sets the minimum extruding and travel feed rate, mm/sec
M107
M862.3 P "MK3S" ; printer model check
M862.1 P0.4 ; nozzle diameter check
M115 U3.8.1 ; tell printer latest fw version
G90 ; use absolute coordinates
M83 ; extruder relative mode
M104 S215 ; set extruder temp
M140 S60 ; set bed temp
M190 S60 ; wait for bed temp
M109 S215 ; wait for extruder temp
G28 W ; home all without mesh bed level
G80 ; mesh bed leveling
G1 Y-3.0 F1000.0 ; go outside print area
G92 E0.0
G1 X60.0 E9.0 F1000.0 ; intro line
M73 Q0 S23
M73 P0 R23
G1 X100.0 E12.5 F1000.0 ; intro line
G92 E0.0
M221 S95
G21 ; set units to millimeters
G90 ; use absolute coordinates
M83 ; use relative distances for extrusion
M900 K30 ; Filament gcode
;BEFORE_LAYER_CHANGE
G92 E0.0
;0.2


G1 E-0.80000 F2100.00000
G1 Z0.600 F10800.000
;AFTER_LAYER_CHANGE
;0.2
G1 X68.869 Y90.037
G1 Z0.200
G1 E0.80000 F2100.00000
M204 S1000
G1 F1200
G1 X69.997 Y89.909 E0.03558
G1 X180.006 Y89.909 E3.44924
G1 X180.975 Y90.004 E0.03054
G1 X181.909 Y90.281 E0.03054
G1 X182.773 Y90.731 E0.03054
G1 X183.535 Y91.337 E0.03054
G1 X184.165 Y92.073 E0.03036
G1 X184.646 Y92.919 E0.03054
G1 X184.957 Y93.842 E0.03054
G1 X185.087 Y94.808 E0.03054
G1 X185.091 Y115.017 E0.63365
G1 X185.028 Y115.794 E0.02444
G1 X184.855 Y116.531 E0.02375
G1 X184.574 Y117.234 E0.02375
G1 X184.192 Y117.888 E0.02375
G1 X183.717 Y118.478 E0.02375
G1 X183.160 Y118.991 E0.02375
G1 X182.533 Y119.416 E0.02375
G1 X181.855 Y119.741 E0.02357
G1 X181.131 Y119.963 E0.02375
G1 X180.003 Y120.091 E0.03558
G1 X69.833 Y120.088 E3.45431
G1 X69.003 Y119.992 E0.02619
G1 X68.200 Y119.762 E0.02619
G1 X67.446 Y119.403 E0.02619
G1 X66.760 Y118.927 E0.02619
G1 X66.162 Y118.344 E0.02619
G1 X65.667 Y117.671 E0.02619
G1 X65.288 Y116.927 E0.02619
G1 X65.037 Y116.131 E0.02619
G1 X64.909 Y115.014 E0.03523
G1 X64.909 Y94.989 E0.62788
G1 X64.963 Y94.261 E0.02288
G1 X65.130 Y93.517 E0.02392
G1 X65.407 Y92.806 E0.02392
G1 X65.786 Y92.144 E0.02392
G1 X66.260 Y91.546 E0.02392
G1 X66.819 Y91.026 E0.02392
G1 X67.453 Y90.592 E0.02410
G1 X68.140 Y90.261 E0.02392
G1 X68.812 Y90.054 E0.02204
G1 F8640
G1 X69.997 Y89.909 E-0.27564
G1 X72.095 Y89.909 E-0.48436
G1 E-0.04000 F2100.00000
G1 Z0.800 F10800.000
G1 X144.693 Y96.287
G1 Z0.200
G1 E0.80000 F2100.00000
G1 F1200
G1 X155.307 Y96.287 E0.33277
G1 X155.338 Y94.140 E0.06730
G1 X155.688 Y93.013 E0.03701
G1 X156.193 Y92.178 E0.03059
G1 X157.244 Y91.145 E0.04620
G1 X158.154 Y90.626 E0.03285
G1 X159.160 Y90.332 E0.03286
G1 X180.667 Y90.306 E0.67433
G1 X182.352 Y90.871 E0.05573
G1 X183.107 Y91.438 E0.02960
G1 X184.006 Y92.451 E0.04248
G1 X184.415 Y93.267 E0.02862
G1 X184.713 Y94.490 E0.03947
G1 X184.713 Y115.547 E0.66021
G1 X184.065 Y117.470 E0.06363
G1 X183.563 Y118.105 E0.02538
G1 X182.638 Y118.945 E0.03919
G1 X181.819 Y119.382 E0.02908
G1 X180.510 Y119.713 E0.04234
G1 X129.453 Y119.713 E1.60086
G1 X127.530 Y119.065 E0.06363
G1 X126.895 Y118.563 E0.02538
G1 X126.055 Y117.638 E0.03919
G1 X125.618 Y116.819 E0.02908
G1 X125.287 Y115.510 E0.04234
G1 X125.287 Y94.480 E0.65938
G1 X125.704 Y92.979 E0.04884
G1 X126.337 Y92.004 E0.03646
G1 X127.234 Y91.149 E0.03885
G1 X128.166 Y90.624 E0.03355
G1 X129.338 Y90.306 E0.03807
G1 X140.634 Y90.306 E0.35417
G1 X141.688 Y90.563 E0.03403
G1 X142.659 Y91.071 E0.03436
G1 X143.801 Y92.171 E0.04971
G1 X144.312 Y93.012 E0.03084
G1 X144.662 Y94.140 E0.03703
G1 X144.692 Y96.227 E0.06542
G1 X144.320 Y96.664 F10800.000
G1 F1200
G1 X155.680 Y96.664 E0.35621
G1 X155.707 Y94.225 E0.07645
G1 X156.041 Y93.147 E0.03538
G1 X156.502 Y92.395 E0.02767
G1 X157.453 Y91.460 E0.04184
G1 X158.281 Y90.981 E0.02998
G1 X159.240 Y90.702 E0.03130
G1 X180.576 Y90.673 E0.66898
G1 X182.202 Y91.219 E0.05377
G1 X182.838 Y91.703 E0.02506
G1 X183.682 Y92.644 E0.03965
G1 X184.055 Y93.380 E0.02585
G1 X184.336 Y94.514 E0.03664
G1 X184.336 Y115.516 E0.65852
G1 X183.748 Y117.263 E0.05778
G1 X183.298 Y117.837 E0.02287
G1 X182.402 Y118.649 E0.03792
G1 X181.664 Y119.038 E0.02616
G1 X180.487 Y119.336 E0.03808
G1 X129.484 Y119.336 E1.59916
G1 X127.737 Y118.748 E0.05778
G1 X127.163 Y118.298 E0.02287
G1 X126.351 Y117.402 E0.03792
G1 X125.962 Y116.664 E0.02616
G1 X125.664 Y115.487 E0.03808
G1 X125.664 Y94.507 E0.65782
G1 X126.059 Y93.111 E0.04548
G1 X126.639 Y92.230 E0.03307
G1 X127.475 Y91.440 E0.03608
G1 X128.329 Y90.965 E0.03064
G1 X129.364 Y90.684 E0.03362
G1 X140.566 Y90.677 E0.35126
G1 X141.576 Y90.924 E0.03257
G1 X142.459 Y91.392 E0.03134
G1 X143.493 Y92.389 E0.04504
G1 X143.959 Y93.147 E0.02789
G1 X144.293 Y94.225 E0.03540
G1 X144.319 Y96.604 E0.07457
G1 X143.945 Y97.041 F10800.000
G1 F1200
G1 X156.055 Y97.041 E0.37973
G1 X156.075 Y94.310 E0.08561
G1 X156.394 Y93.283 E0.03373
G1 X156.810 Y92.614 E0.02471
G1 X157.663 Y91.774 E0.03752
G1 X158.450 Y91.320 E0.02849
G1 X159.318 Y91.072 E0.02831
G1 X180.545 Y91.050 E0.66558
G1 X181.999 Y91.538 E0.04808
G1 X182.571 Y91.970 E0.02245
G1 X183.358 Y92.840 E0.03679
G1 X183.695 Y93.494 E0.02308
G1 X183.959 Y94.538 E0.03376
G1 X183.959 Y115.486 E0.65681
G1 X183.431 Y117.057 E0.05197
G1 X183.031 Y117.570 E0.02040
G1 X182.203 Y118.328 E0.03521
G1 X181.547 Y118.679 E0.02332
G1 X180.462 Y118.959 E0.03513
G1 X129.514 Y118.959 E1.59744
G1 X127.943 Y118.431 E0.05197
G1 X127.430 Y118.031 E0.02040
G1 X126.672 Y117.203 E0.03521
G1 X126.321 Y116.547 E0.02332
G1 X126.041 Y115.462 E0.03513
G1 X126.041 Y94.532 E0.65624
G1 X126.390 Y93.292 E0.04039
G1 X126.915 Y92.489 E0.03009
G1 X127.717 Y91.730 E0.03462
G1 X128.450 Y91.323 E0.02629
G1 X129.438 Y91.054 E0.03212
G1 X140.501 Y91.049 E0.34686
G1 X141.421 Y91.269 E0.02964
G1 X142.259 Y91.713 E0.02974
G1 X143.186 Y92.608 E0.04042
G1 X143.606 Y93.282 E0.02490
G1 X143.925 Y94.310 E0.03374
G1 X143.944 Y96.981 E0.08373
G1 X143.570 Y97.418 F10800.000
G1 F1200
G1 X156.430 Y97.418 E0.40321
G1 X156.452 Y94.341 E0.09647
G1 X156.728 Y93.460 E0.02896
G1 X157.092 Y92.864 E0.02189
G1 X157.875 Y92.087 E0.03458
G1 X158.579 Y91.674 E0.02560
G1 X159.346 Y91.449 E0.02505
G1 X180.515 Y91.428 E0.66375
G1 X181.798 Y91.858 E0.04243
G1 X182.305 Y92.238 E0.01986
G1 X183.036 Y93.037 E0.03395
G1 X183.335 Y93.611 E0.02030
G1 X183.582 Y94.562 E0.03082
G1 X183.582 Y115.455 E0.65508
G1 X183.113 Y116.851 E0.04619
G1 X182.763 Y117.305 E0.01795
G1 X182.002 Y118.009 E0.03252
G1 X181.428 Y118.320 E0.02047
G1 X180.437 Y118.582 E0.03212
G1 X129.545 Y118.582 E1.59569
G1 X128.149 Y118.113 E0.04619
G1 X127.695 Y117.763 E0.01795
G1 X126.991 Y117.002 E0.03252
G1 X126.680 Y116.428 E0.02047
G1 X126.418 Y115.437 E0.03212
G1 X126.418 Y94.558 E0.65466
G1 X126.723 Y93.472 E0.03536
G1 X127.191 Y92.746 E0.02708
G1 X127.959 Y92.020 E0.03315
G1 X128.571 Y91.681 E0.02194
G1 X129.513 Y91.424 E0.03062
G1 X140.478 Y91.426 E0.34379
G1 X141.307 Y91.629 E0.02676
G1 X142.056 Y92.032 E0.02666
G1 X142.905 Y92.861 E0.03721
G1 X143.272 Y93.459 E0.02202
G1 X143.548 Y94.341 E0.02897
G1 X143.570 Y97.358 E0.09459
G1 X143.196 Y97.795 F10800.000
G1 F1200
G1 X156.804 Y97.795 E0.42668
G1 X156.829 Y94.372 E0.10731
G1 X157.062 Y93.635 E0.02426
G1 X157.376 Y93.113 E0.01909
G1 X158.089 Y92.398 E0.03165
G1 X158.709 Y92.029 E0.02263
G1 X159.426 Y91.818 E0.02345
G1 X180.424 Y91.795 E0.65837
G1 X181.647 Y92.206 E0.04046
G1 X182.039 Y92.505 E0.01546
G1 X182.715 Y93.236 E0.03121
G1 X182.977 Y93.729 E0.01752
G1 X183.205 Y94.587 E0.02783
G1 X183.205 Y115.424 E0.65333
G1 X182.794 Y116.647 E0.04045
G1 X182.495 Y117.039 E0.01546
G1 X181.764 Y117.715 E0.03121
G1 X181.271 Y117.977 E0.01752
G1 X180.413 Y118.205 E0.02783
G1 X129.576 Y118.205 E1.59396
M73 Q4 S22
G1 X128.353 Y117.794 E0.04045
M73 P4 R22
G1 X127.961 Y117.495 E0.01546
G1 X127.285 Y116.764 E0.03121
G1 X127.023 Y116.271 E0.01752
G1 X126.795 Y115.413 E0.02783
G1 X126.795 Y94.585 E0.65303
G1 X127.077 Y93.605 E0.03197
G1 X127.492 Y92.973 E0.02372
G1 X128.198 Y92.312 E0.03031
G1 X128.731 Y92.022 E0.01903
G1 X129.538 Y91.801 E0.02625
G1 X140.413 Y91.799 E0.34097
G1 X141.151 Y91.973 E0.02377
G1 X141.853 Y92.351 E0.02500
G1 X142.622 Y93.112 E0.03392
G1 X142.938 Y93.635 E0.01916
G1 X143.171 Y94.372 E0.02426
G1 X143.195 Y97.735 E0.10543
G1 X142.821 Y98.172 F10800.000
G1 F1200
G1 X157.179 Y98.172 E0.45016
G1 X157.206 Y94.404 E0.11813
G1 X157.397 Y93.808 E0.01964
G1 X157.662 Y93.360 E0.01630
G1 X158.305 Y92.708 E0.02873
G1 X158.840 Y92.384 E0.01960
G1 X159.507 Y92.187 E0.02181
G1 X180.394 Y92.172 E0.65489
G1 X181.445 Y92.525 E0.03476
G1 X181.775 Y92.775 E0.01301
G1 X182.396 Y93.438 E0.02845
G1 X182.620 Y93.851 E0.01474
G1 X182.828 Y94.613 E0.02477
G1 X182.828 Y115.394 E0.65156
G1 X182.475 Y116.445 E0.03476
G1 X182.225 Y116.775 E0.01301
G1 X181.562 Y117.396 E0.02845
G1 X181.149 Y117.620 E0.01474
G1 X180.387 Y117.828 E0.02477
G1 X129.606 Y117.828 E1.59219
G1 X128.555 Y117.475 E0.03476
G1 X128.225 Y117.225 E0.01301
G1 X127.604 Y116.562 E0.02845
G1 X127.380 Y116.149 E0.01474
G1 X127.172 Y115.387 E0.02477
G1 X127.172 Y94.613 E0.65135
G1 X127.430 Y93.740 E0.02853
G1 X127.766 Y93.234 E0.01906
G1 X128.438 Y92.604 E0.02887
G1 X128.851 Y92.380 E0.01474
G1 X129.614 Y92.172 E0.02478
G1 X140.390 Y92.176 E0.33788
G1 X141.036 Y92.333 E0.02086
G1 X141.647 Y92.668 E0.02184
G1 X142.337 Y93.360 E0.03066
G1 X142.603 Y93.808 E0.01633
G1 X142.794 Y94.404 E0.01964
G1 X142.821 Y98.112 E0.11625
G1 X142.447 Y98.549 F10800.000
G1 F1200
G1 X157.553 Y98.549 E0.47364
G1 X157.583 Y94.438 E0.12889
G1 X157.748 Y93.948 E0.01623
G1 X157.949 Y93.607 E0.01241
G1 X158.524 Y93.015 E0.02588
G1 X158.971 Y92.738 E0.01649
G1 X159.588 Y92.557 E0.02014
G1 X180.363 Y92.549 E0.65140
G1 X181.243 Y92.845 E0.02912
G1 X181.514 Y93.047 E0.01059
G1 X182.078 Y93.643 E0.02573
G1 X182.263 Y93.976 E0.01196
G1 X182.451 Y94.640 E0.02162
G1 X182.451 Y115.363 E0.64976
G1 X182.155 Y116.243 E0.02912
G1 X181.953 Y116.514 E0.01059
G1 X181.357 Y117.078 E0.02573
G1 X181.024 Y117.263 E0.01196
G1 X180.360 Y117.451 E0.02162
G1 X129.637 Y117.451 E1.59038
G1 X128.757 Y117.155 E0.02912
G1 X128.486 Y116.953 E0.01059
G1 X127.922 Y116.357 E0.02573
G1 X127.737 Y116.024 E0.01196
G1 X127.549 Y115.360 E0.02162
G1 X127.549 Y94.640 E0.64966
G1 X127.761 Y93.923 E0.02346
G1 X128.042 Y93.491 E0.01615
G1 X128.643 Y92.922 E0.02595
G1 X128.976 Y92.737 E0.01196
G1 X129.640 Y92.549 E0.02163
G1 X140.367 Y92.553 E0.33634
G1 X140.877 Y92.676 E0.01644
G1 X141.441 Y92.985 E0.02016
G1 X142.052 Y93.607 E0.02733
G1 X142.252 Y93.948 E0.01241
G1 X142.417 Y94.438 E0.01623
G1 X142.447 Y98.489 E0.12701
G1 X142.073 Y98.926 F10800.000
G1 F1200
G1 X157.927 Y98.926 E0.49711
G1 X157.959 Y94.475 E0.13957
G1 X158.096 Y94.092 E0.01274
G1 X158.237 Y93.851 E0.00876
G1 X158.747 Y93.320 E0.02310
G1 X159.105 Y93.092 E0.01328
G1 X159.668 Y92.926 E0.01842
G1 X180.332 Y92.926 E0.64791
G1 X181.044 Y93.166 E0.02355
G1 X181.254 Y93.321 E0.00819
G1 X181.763 Y93.851 E0.02305
G1 X181.909 Y94.106 E0.00919
G1 X182.074 Y94.668 E0.01838
G1 X182.074 Y115.332 E0.64791
G1 X181.834 Y116.044 E0.02355
G1 X181.679 Y116.254 E0.00819
G1 X181.149 Y116.763 E0.02305
G1 X180.894 Y116.909 E0.00919
G1 X180.332 Y117.074 E0.01838
G1 X129.668 Y117.074 E1.58854
G1 X128.956 Y116.834 E0.02355
G1 X128.746 Y116.679 E0.00819
G1 X128.237 Y116.149 E0.02305
G1 X128.091 Y115.894 E0.00919
G1 X127.926 Y115.332 E0.01838
G1 X127.926 Y94.669 E0.64787
G1 X128.113 Y94.060 E0.01997
G1 X128.319 Y93.748 E0.01172
G1 X128.851 Y93.237 E0.02316
G1 X129.106 Y93.091 E0.00919
G1 X129.668 Y92.926 E0.01838
G1 X140.345 Y92.930 E0.33478
G1 X140.718 Y93.019 E0.01202
G1 X141.234 Y93.301 E0.01844
G1 X141.763 Y93.851 E0.02392
G1 X141.904 Y94.092 E0.00876
G1 X142.041 Y94.475 E0.01274
G1 X142.072 Y98.866 E0.13769
G1 X141.697 Y99.303 F10800.000
G1 F1200
G1 X158.303 Y99.303 E0.52068
G1 X158.325 Y94.572 E0.14836
G1 X158.445 Y94.238 E0.01112
G1 X158.548 Y94.064 E0.00633
G1 X159.002 Y93.598 E0.02040
G1 X159.242 Y93.444 E0.00894
G1 X159.698 Y93.303 E0.01495
G1 X180.301 Y93.303 E0.64601
G1 X180.846 Y93.488 E0.01806
G1 X180.996 Y93.597 E0.00580
G1 X181.451 Y94.064 E0.02044
G1 X181.556 Y94.241 E0.00643
G1 X181.697 Y94.698 E0.01500
G1 X181.697 Y115.301 E0.64601
G1 X181.512 Y115.846 E0.01806
G1 X181.403 Y115.996 E0.00580
G1 X180.936 Y116.451 E0.02044
G1 X180.759 Y116.556 E0.00643
G1 X180.302 Y116.697 E0.01500
G1 X129.699 Y116.697 E1.58664
G1 X129.154 Y116.512 E0.01806
G1 X129.004 Y116.403 E0.00580
G1 X128.549 Y115.936 E0.02044
G1 X128.444 Y115.759 E0.00643
G1 X128.303 Y115.302 E0.01500
G1 X128.303 Y94.698 E0.64605
G1 X128.444 Y94.242 E0.01495
G1 X128.598 Y94.002 E0.00894
G1 X129.064 Y93.549 E0.02038
G1 X129.241 Y93.444 E0.00643
G1 X129.698 Y93.303 E0.01500
G1 X140.324 Y93.307 E0.33317
G1 X140.565 Y93.364 E0.00777
G1 X140.986 Y93.587 E0.01495
G1 X141.452 Y94.064 E0.02091
G1 X141.555 Y94.238 E0.00633
G1 X141.675 Y94.572 E0.01112
G1 X141.697 Y99.243 E0.14648
G1 X141.320 Y99.680 F10800.000
G1 F1200
G1 X158.680 Y99.680 E0.54430
G1 X158.691 Y94.668 E0.15715
G1 X158.793 Y94.385 E0.00943
G1 X158.856 Y94.282 E0.00379
G1 X159.256 Y93.877 E0.01785
G1 X159.385 Y93.793 E0.00482
G1 X159.729 Y93.680 E0.01136
G1 X180.269 Y93.680 E0.64401
G1 X180.652 Y93.812 E0.01270
G1 X180.741 Y93.875 E0.00343
G1 X181.144 Y94.282 E0.01795
G1 X181.206 Y94.383 E0.00371
G1 X181.320 Y94.729 E0.01144
G1 X181.320 Y115.269 E0.64401
G1 X181.188 Y115.652 E0.01270
G1 X181.125 Y115.741 E0.00343
G1 X180.718 Y116.144 E0.01795
G1 X180.617 Y116.206 E0.00371
G1 X180.271 Y116.320 E0.01144
G1 X129.731 Y116.320 E1.58464
G1 X129.348 Y116.188 E0.01270
G1 X129.259 Y116.125 E0.00343
G1 X128.856 Y115.718 E0.01795
G1 X128.794 Y115.617 E0.00371
G1 X128.680 Y115.271 E0.01144
G1 X128.680 Y94.729 E0.64406
G1 X128.793 Y94.385 E0.01136
G1 X128.877 Y94.256 E0.00482
G1 X129.282 Y93.856 E0.01785
G1 X129.383 Y93.794 E0.00371
G1 X129.729 Y93.680 E0.01144
G1 X140.302 Y93.684 E0.33149
G1 X140.416 Y93.711 E0.00369
G1 X140.741 Y93.875 E0.01142
G1 X141.144 Y94.282 E0.01795
G1 X141.207 Y94.385 E0.00379
G1 X141.309 Y94.668 E0.00943
G1 X141.320 Y99.620 E0.15527
G1 X140.943 Y100.057 F10800.000
G1 F1200
G1 X159.057 Y100.057 E0.56797
G1 X159.057 Y94.764 E0.16595
G1 X159.157 Y94.510 E0.00856
G1 X159.510 Y94.157 E0.01566
G1 X159.764 Y94.057 E0.00856
G1 X180.236 Y94.057 E0.64186
G1 X180.463 Y94.139 E0.00757
G1 X180.843 Y94.510 E0.01666
G1 X180.943 Y94.764 E0.00856
G1 X180.943 Y115.236 E0.64186
G1 X180.861 Y115.463 E0.00757
G1 X180.490 Y115.843 E0.01666
G1 X180.236 Y115.943 E0.00856
G1 X129.764 Y115.943 E1.58249
G1 X129.510 Y115.843 E0.00856
G1 X129.157 Y115.490 E0.01566
G1 X129.057 Y115.236 E0.00856
G1 X129.057 Y94.764 E0.64186
G1 X129.157 Y94.510 E0.00856
G1 X129.510 Y94.157 E0.01566
G1 X129.764 Y94.057 E0.00856
G1 X140.282 Y94.064 E0.32976
G1 X140.500 Y94.167 E0.00757
G1 X140.843 Y94.510 E0.01522
G1 X140.943 Y94.764 E0.00856
G1 X140.943 Y99.997 E0.16407
G1 X140.566 Y100.434 F10800.000
G1 F1200
G1 X159.434 Y100.434 E0.59162
G1 X159.434 Y94.806 E0.17646
G1 X159.463 Y94.737 E0.00235
G1 X159.737 Y94.463 E0.01215
G1 X159.806 Y94.434 E0.00235
G1 X180.194 Y94.434 E0.63923
G1 X180.263 Y94.463 E0.00235
G1 X180.537 Y94.737 E0.01215
G1 X180.566 Y94.806 E0.00235
G1 X180.566 Y115.194 E0.63923
G1 X180.537 Y115.263 E0.00235
G1 X180.263 Y115.537 E0.01215
G1 X180.194 Y115.566 E0.00235
G1 X129.806 Y115.566 E1.57986
G1 X129.737 Y115.537 E0.00235
G1 X129.463 Y115.263 E0.01215
G1 X129.434 Y115.194 E0.00235
G1 X129.434 Y94.806 E0.63923
G1 X129.463 Y94.737 E0.00235
G1 X129.737 Y94.463 E0.01215
G1 X129.806 Y94.434 E0.00235
G1 X140.194 Y94.434 E0.32569
G1 X140.263 Y94.463 E0.00235
G1 X140.537 Y94.737 E0.01215
G1 X140.566 Y94.806 E0.00235
