; generated by PrusaSlicer 2.1.1+win64 on 2020-02-19 at 08:58:43 UTC

; 

; external perimeters extrusion width = 0.45mm
; perimeters extrusion width = 0.45mm
; infill extrusion width = 0.45mm
; solid infill extrusion width = 0.45mm
; top infill extrusion width = 0.40mm
; first layer extrusion width = 0.42mm

M73 P0 R21
M73 Q0 S21
M201 X1000 Y1000 Z1000 E5000 ; sets maximum accelerations, mm/sec^2
M203 X200 Y200 Z12 E120 ; sets maximum feedrates, mm/sec
M204 P1250 R1250 T1250 ; sets acceleration (P, T) and retract acceleration (R), mm/sec^2
M205 X8.00 Y8.00 Z0.40 E4.50 ; sets the jerk limits, mm/sec
M205 S0 T0 ; sets the minimum extruding and travel feed rate, mm/sec
M107
M862.3 P "MK3S" ; printer model check
M862.1 P0.4 ; nozzle diameter check
M115 U3.8.1 ; tell printer latest fw version
G90 ; use absolute coordinates
M83 ; extruder relative mode
M104 S215 ; set extruder temp
M140 S60 ; set bed temp
M190 S60 ; wait for bed temp
M109 S215 ; wait for extruder temp
G28 W ; home all without mesh bed level
G80 ; mesh bed leveling
G1 Y-3.0 F1000.0 ; go outside print area
G92 E0.0
G1 X60.0 E9.0 F1000.0 ; intro line
M73 Q0 S21
M73 P0 R21
G1 X100.0 E12.5 F1000.0 ; intro line
G92 E0.0
M221 S95
G21 ; set units to millimeters
G90 ; use absolute coordinates
M83 ; use relative distances for extrusion
M900 K30 ; Filament gcode
;BEFORE_LAYER_CHANGE
G92 E0.0
;0.2


G1 E-0.80000 F2100.00000
G1 Z0.600 F10800.000
;AFTER_LAYER_CHANGE
;0.2
G1 X68.869 Y90.037
G1 Z0.200
G1 E0.80000 F2100.00000
M204 S1000
G1 F1200
G1 X69.997 Y89.909 E0.03558
G1 X180.006 Y89.909 E3.44924
G1 X180.975 Y90.004 E0.03054
G1 X181.909 Y90.281 E0.03054
G1 X182.773 Y90.731 E0.03054
G1 X183.535 Y91.337 E0.03054
G1 X184.165 Y92.073 E0.03036
G1 X184.646 Y92.919 E0.03054
G1 X184.957 Y93.842 E0.03054
G1 X185.087 Y94.808 E0.03054
G1 X185.091 Y115.017 E0.63365
G1 X185.028 Y115.794 E0.02444
G1 X184.855 Y116.531 E0.02375
G1 X184.574 Y117.234 E0.02375
G1 X184.192 Y117.888 E0.02375
G1 X183.717 Y118.478 E0.02375
G1 X183.160 Y118.991 E0.02375
G1 X182.533 Y119.416 E0.02375
G1 X181.855 Y119.741 E0.02357
G1 X181.131 Y119.963 E0.02375
G1 X180.003 Y120.091 E0.03558
G1 X69.833 Y120.088 E3.45431
G1 X69.003 Y119.992 E0.02619
G1 X68.200 Y119.762 E0.02619
G1 X67.446 Y119.403 E0.02619
G1 X66.760 Y118.927 E0.02619
G1 X66.162 Y118.344 E0.02619
G1 X65.667 Y117.671 E0.02619
G1 X65.288 Y116.927 E0.02619
G1 X65.037 Y116.131 E0.02619
G1 X64.909 Y115.014 E0.03523
G1 X64.909 Y94.989 E0.62788
G1 X64.963 Y94.261 E0.02288
G1 X65.130 Y93.517 E0.02392
G1 X65.407 Y92.806 E0.02392
G1 X65.786 Y92.144 E0.02392
G1 X66.260 Y91.546 E0.02392
G1 X66.819 Y91.026 E0.02392
G1 X67.453 Y90.592 E0.02410
G1 X68.140 Y90.261 E0.02392
G1 X68.812 Y90.054 E0.02204
G1 F8640
G1 X69.997 Y89.909 E-0.27564
G1 X72.095 Y89.909 E-0.48436
G1 E-0.04000 F2100.00000
G1 Z0.800 F10800.000
G1 X94.694 Y96.337
G1 Z0.200
G1 E0.80000 F2100.00000
G1 F1200
G1 X105.307 Y96.337 E0.33276
G1 X105.343 Y94.100 E0.07014
G1 X105.683 Y93.025 E0.03534
G1 X106.222 Y92.141 E0.03244
G1 X107.082 Y91.272 E0.03835
G1 X108.119 Y90.641 E0.03805
G1 X109.288 Y90.313 E0.03809
G1 X120.607 Y90.296 E0.35488
G1 X122.409 Y90.902 E0.05960
G1 X123.107 Y91.438 E0.02761
G1 X124.006 Y92.451 E0.04247
G1 X124.415 Y93.267 E0.02862
G1 X124.713 Y94.490 E0.03947
G1 X124.713 Y111.497 E0.53323
G1 X124.065 Y113.420 E0.06363
G1 X123.562 Y114.056 E0.02542
G1 X122.595 Y114.925 E0.04075
G1 X121.776 Y115.349 E0.02893
G1 X120.510 Y115.663 E0.04090
G1 X89.621 Y115.663 E0.96850
G1 X89.592 Y115.978 E0.00990
G1 X89.244 Y117.027 E0.03465
G1 X88.628 Y117.979 E0.03555
G1 X87.641 Y118.904 E0.04242
G1 X86.526 Y119.477 E0.03931
G1 X85.435 Y119.708 E0.03497
G1 X69.491 Y119.714 E0.49992
G1 X68.176 Y119.383 E0.04250
G1 X67.027 Y118.685 E0.04216
G1 X66.386 Y118.052 E0.02824
G1 X65.897 Y117.400 E0.02558
G1 X65.287 Y115.546 E0.06119
G1 X65.287 Y94.491 E0.66018
G1 X65.617 Y93.176 E0.04249
G1 X66.315 Y92.027 E0.04216
G1 X66.948 Y91.386 E0.02824
G1 X67.600 Y90.897 E0.02558
G1 X69.454 Y90.286 E0.06121
G1 X90.543 Y90.295 E0.66122
G1 X91.637 Y90.544 E0.03518
G1 X92.656 Y91.070 E0.03595
G1 X93.801 Y92.171 E0.04982
G1 X94.312 Y93.012 E0.03085
G1 X94.662 Y94.140 E0.03704
G1 X94.693 Y96.277 E0.06699
G1 X94.320 Y96.714 F10800.000
G1 F1200
G1 X105.680 Y96.714 E0.35618
G1 X105.711 Y94.187 E0.07924
G1 X106.036 Y93.161 E0.03372
G1 X106.531 Y92.358 E0.02960
G1 X107.298 Y91.582 E0.03419
G1 X108.292 Y90.977 E0.03648
G1 X109.363 Y90.684 E0.03484
G1 X120.576 Y90.673 E0.35158
G1 X122.205 Y91.221 E0.05387
G1 X122.839 Y91.704 E0.02498
G1 X123.682 Y92.644 E0.03960
G1 X124.055 Y93.380 E0.02585
G1 X124.336 Y94.514 E0.03664
G1 X124.336 Y111.466 E0.53153
G1 X123.748 Y113.213 E0.05778
G1 X123.297 Y113.788 E0.02292
G1 X122.398 Y114.602 E0.03802
G1 X121.661 Y114.989 E0.02610
G1 X120.486 Y115.286 E0.03800
G1 X89.256 Y115.286 E0.97922
G1 X89.225 Y115.889 E0.01892
G1 X88.913 Y116.845 E0.03152
G1 X88.353 Y117.720 E0.03258
G1 X87.403 Y118.610 E0.04081
G1 X86.379 Y119.130 E0.03602
G1 X85.416 Y119.331 E0.03084
G1 X69.514 Y119.336 E0.49859
G1 X68.346 Y119.045 E0.03773
G1 X67.276 Y118.401 E0.03917
G1 X66.662 Y117.794 E0.02707
G1 X66.217 Y117.199 E0.02330
G1 X65.664 Y115.516 E0.05555
G1 X65.664 Y94.514 E0.65852
G1 X65.955 Y93.346 E0.03772
G1 X66.599 Y92.276 E0.03917
G1 X67.206 Y91.662 E0.02707
G1 X67.801 Y91.217 E0.02330
G1 X69.484 Y90.664 E0.05556
G1 X90.521 Y90.672 E0.65959
G1 X91.528 Y90.906 E0.03241
G1 X92.457 Y91.391 E0.03288
G1 X93.493 Y92.389 E0.04509
G1 X93.959 Y93.147 E0.02789
G1 X94.293 Y94.225 E0.03541
G1 X94.319 Y96.654 E0.07614
G1 X93.945 Y97.091 F10800.000
G1 F1200
G1 X106.054 Y97.091 E0.37968
G1 X106.080 Y94.273 E0.08834
G1 X106.388 Y93.298 E0.03206
G1 X106.839 Y92.576 E0.02669
G1 X107.548 Y91.865 E0.03148
G1 X108.463 Y91.315 E0.03348
G1 X109.436 Y91.054 E0.03160
G1 X120.546 Y91.051 E0.34833
G1 X122.002 Y91.540 E0.04818
G1 X122.572 Y91.971 E0.02238
G1 X123.358 Y92.840 E0.03675
G1 X123.695 Y93.494 E0.02308
G1 X123.959 Y94.538 E0.03376
G1 X123.959 Y111.436 E0.52982
G1 X123.431 Y113.007 E0.05197
G1 X123.030 Y113.521 E0.02045
G1 X122.199 Y114.281 E0.03531
G1 X121.544 Y114.630 E0.02326
G1 X120.462 Y114.909 E0.03505
G1 X88.888 Y114.909 E0.98998
G1 X88.858 Y115.799 E0.02790
G1 X88.562 Y116.705 E0.02988
G1 X88.077 Y117.462 E0.02821
G1 X87.208 Y118.286 E0.03754
G1 X86.231 Y118.782 E0.03436
G1 X85.397 Y118.954 E0.02670
G1 X69.538 Y118.959 E0.49725
G1 X68.467 Y118.687 E0.03465
G1 X67.525 Y118.117 E0.03450
G1 X66.937 Y117.536 E0.02592
G1 X66.538 Y116.999 E0.02099
G1 X66.041 Y115.486 E0.04993
G1 X66.041 Y94.538 E0.65683
G1 X66.313 Y93.467 E0.03464
G1 X66.883 Y92.525 E0.03450
G1 X67.464 Y91.937 E0.02592
G1 X68.001 Y91.538 E0.02099
G1 X69.514 Y91.041 E0.04994
G1 X90.499 Y91.049 E0.65795
G1 X91.417 Y91.267 E0.02958
G1 X92.257 Y91.712 E0.02982
G1 X93.186 Y92.609 E0.04048
G1 X93.606 Y93.282 E0.02490
G1 X93.925 Y94.310 E0.03375
G1 X93.944 Y97.031 E0.08529
G1 X93.570 Y97.468 F10800.000
G1 F1200
G1 X106.428 Y97.468 E0.40314
G1 X106.456 Y94.306 E0.09913
G1 X106.739 Y93.438 E0.02864
G1 X107.121 Y92.828 E0.02257
G1 X107.799 Y92.148 E0.03010
G1 X108.588 Y91.671 E0.02891
G1 X109.463 Y91.431 E0.02843
G1 X120.455 Y91.418 E0.34466
G1 X121.851 Y91.887 E0.04619
G1 X122.304 Y92.237 E0.01793
G1 X123.036 Y93.037 E0.03399
G1 X123.335 Y93.611 E0.02030
G1 X123.582 Y94.562 E0.03082
G1 X123.582 Y111.405 E0.52809
G1 X123.113 Y112.801 E0.04619
G1 X122.763 Y113.254 E0.01793
G1 X121.963 Y113.986 E0.03399
G1 X121.389 Y114.285 E0.02030
G1 X120.438 Y114.532 E0.03082
G1 X88.518 Y114.532 E1.00084
G1 X88.490 Y115.709 E0.03691
G1 X88.211 Y116.565 E0.02822
G1 X87.799 Y117.206 E0.02390
G1 X87.012 Y117.963 E0.03424
G1 X86.083 Y118.434 E0.03265
G1 X85.378 Y118.577 E0.02255
G1 X69.562 Y118.582 E0.49589
G1 X68.590 Y118.329 E0.03150
G1 X67.742 Y117.808 E0.03119
G1 X67.212 Y117.278 E0.02350
G1 X66.885 Y116.848 E0.01695
G1 X66.418 Y115.455 E0.04607
G1 X66.418 Y94.562 E0.65508
G1 X66.671 Y93.590 E0.03149
G1 X67.191 Y92.742 E0.03119
G1 X67.722 Y92.212 E0.02350
G1 X68.152 Y91.885 E0.01695
G1 X69.545 Y91.418 E0.04608
G1 X90.435 Y91.421 E0.65499
G1 X91.263 Y91.612 E0.02662
G1 X92.056 Y92.032 E0.02816
G1 X92.905 Y92.861 E0.03719
G1 X93.272 Y93.459 E0.02202
G1 X93.548 Y94.341 E0.02897
G1 X93.570 Y97.408 E0.09615
G1 X93.196 Y97.845 F10800.000
G1 F1200
G1 X106.801 Y97.845 E0.42659
G1 X106.833 Y94.339 E0.10992
G1 X107.071 Y93.617 E0.02386
G1 X107.405 Y93.076 E0.01991
G1 X108.016 Y92.456 E0.02730
G1 X108.714 Y92.027 E0.02568
G1 X109.538 Y91.802 E0.02678
G1 X120.424 Y91.795 E0.34134
G1 X121.647 Y92.206 E0.04045
G1 X122.039 Y92.505 E0.01546
G1 X122.715 Y93.236 E0.03121
G1 X122.977 Y93.729 E0.01752
G1 X123.205 Y94.587 E0.02783
G1 X123.205 Y111.374 E0.52635
G1 X122.794 Y112.597 E0.04045
G1 X122.495 Y112.989 E0.01546
G1 X121.764 Y113.665 E0.03121
G1 X121.271 Y113.927 E0.01752
G1 X120.413 Y114.155 E0.02783
G1 X88.145 Y114.155 E1.01175
G1 X88.123 Y115.620 E0.04593
G1 X87.861 Y116.423 E0.02651
G1 X87.496 Y116.982 E0.02093
G1 X86.816 Y117.639 E0.02965
G1 X85.936 Y118.086 E0.03094
G1 X85.360 Y118.200 E0.01841
G1 X69.587 Y118.205 E0.49454
G1 X68.715 Y117.973 E0.02832
G1 X67.994 Y117.527 E0.02658
G1 X67.488 Y117.021 E0.02241
G1 X67.204 Y116.645 E0.01477
G1 X66.795 Y115.424 E0.04038
G1 X66.795 Y94.587 E0.65333
M73 Q5 S20
M73 P5 R20
G1 X67.027 Y93.715 E0.02831
G1 X67.473 Y92.994 E0.02658
G1 X67.979 Y92.488 E0.02241
G1 X68.355 Y92.204 E0.01477
G1 X69.576 Y91.795 E0.04039
G1 X90.413 Y91.798 E0.65333
G1 X91.151 Y91.973 E0.02377
G1 X91.853 Y92.351 E0.02500
G1 X92.622 Y93.112 E0.03392
G1 X92.938 Y93.635 E0.01916
G1 X93.171 Y94.372 E0.02426
G1 X93.195 Y97.785 E0.10699
G1 X92.821 Y98.222 F10800.000
G1 F1200
G1 X107.175 Y98.222 E0.45005
G1 X107.210 Y94.373 E0.12069
G1 X107.404 Y93.794 E0.01914
G1 X107.691 Y93.323 E0.01729
G1 X108.237 Y92.763 E0.02454
G1 X108.841 Y92.384 E0.02238
G1 X109.613 Y92.172 E0.02509
G1 X120.394 Y92.172 E0.33802
G1 X121.445 Y92.525 E0.03476
G1 X121.775 Y92.775 E0.01301
G1 X122.396 Y93.438 E0.02845
G1 X122.620 Y93.851 E0.01474
G1 X122.828 Y94.613 E0.02477
G1 X122.828 Y111.344 E0.52457
G1 X122.475 Y112.395 E0.03476
G1 X122.225 Y112.725 E0.01301
G1 X121.562 Y113.346 E0.02845
G1 X121.149 Y113.570 E0.01474
G1 X120.387 Y113.778 E0.02477
G1 X87.769 Y113.778 E1.02270
G1 X87.755 Y115.531 E0.05496
G1 X87.510 Y116.281 E0.02474
G1 X87.193 Y116.756 E0.01791
G1 X86.619 Y117.316 E0.02515
G1 X85.789 Y117.737 E0.02918
G1 X85.343 Y117.823 E0.01426
G1 X69.613 Y117.828 E0.49318
G1 X68.842 Y117.617 E0.02508
G1 X68.245 Y117.245 E0.02203
G1 X67.765 Y116.764 E0.02132
G1 X67.524 Y116.444 E0.01257
G1 X67.172 Y115.394 E0.03472
G1 X67.172 Y94.613 E0.65156
G1 X67.383 Y93.842 E0.02508
G1 X67.755 Y93.245 E0.02203
G1 X68.236 Y92.765 E0.02132
G1 X68.556 Y92.524 E0.01257
G1 X69.606 Y92.172 E0.03473
G1 X90.390 Y92.176 E0.65164
G1 X91.036 Y92.333 E0.02087
G1 X91.647 Y92.668 E0.02184
G1 X92.337 Y93.360 E0.03066
G1 X92.603 Y93.808 E0.01633
G1 X92.794 Y94.404 E0.01964
G1 X92.821 Y98.162 E0.11782
G1 X92.447 Y98.599 F10800.000
G1 F1200
G1 X107.550 Y98.599 E0.47355
G1 X107.577 Y94.462 E0.12972
G1 X107.740 Y93.968 E0.01629
G1 X107.977 Y93.570 E0.01454
G1 X108.492 Y93.042 E0.02313
G1 X108.971 Y92.738 E0.01779
G1 X109.640 Y92.549 E0.02179
G1 X120.363 Y92.549 E0.33621
G1 X121.243 Y92.845 E0.02912
G1 X121.514 Y93.047 E0.01059
G1 X122.078 Y93.643 E0.02573
G1 X122.263 Y93.976 E0.01196
G1 X122.451 Y94.640 E0.02162
G1 X122.451 Y111.313 E0.52277
G1 X122.155 Y112.193 E0.02912
G1 X121.953 Y112.464 E0.01059
G1 X121.357 Y113.028 E0.02573
G1 X121.024 Y113.213 E0.01196
G1 X120.360 Y113.401 E0.02162
G1 X87.395 Y113.401 E1.03359
G1 X87.378 Y115.498 E0.06576
G1 X87.182 Y116.095 E0.01970
G1 X86.915 Y116.501 E0.01523
G1 X86.378 Y117.025 E0.02353
G1 X85.648 Y117.387 E0.02552
G1 X85.295 Y117.449 E0.01125
G1 X69.640 Y117.451 E0.49084
G1 X68.971 Y117.262 E0.02179
G1 X68.497 Y116.964 E0.01755
G1 X68.041 Y116.508 E0.02022
G1 X67.845 Y116.243 E0.01034
G1 X67.549 Y115.363 E0.02911
G1 X67.549 Y94.640 E0.64976
G1 X67.738 Y93.971 E0.02179
G1 X68.036 Y93.497 E0.01755
G1 X68.492 Y93.041 E0.02022
G1 X68.757 Y92.845 E0.01034
G1 X69.637 Y92.549 E0.02911
G1 X90.367 Y92.553 E0.64998
G1 X90.877 Y92.676 E0.01644
G1 X91.441 Y92.985 E0.02016
G1 X92.052 Y93.607 E0.02733
G1 X92.252 Y93.948 E0.01241
G1 X92.417 Y94.438 E0.01623
G1 X92.447 Y98.539 E0.12857
G1 X92.073 Y98.976 F10800.000
G1 F1200
G1 X107.926 Y98.976 E0.49707
G1 X107.945 Y94.551 E0.13874
G1 X108.091 Y94.105 E0.01472
G1 X108.263 Y93.817 E0.01051
G1 X108.747 Y93.320 E0.02176
G1 X109.105 Y93.092 E0.01330
G1 X109.668 Y92.926 E0.01842
G1 X120.332 Y92.926 E0.33437
G1 X121.044 Y93.166 E0.02355
G1 X121.254 Y93.321 E0.00819
G1 X121.763 Y93.851 E0.02305
G1 X121.909 Y94.106 E0.00919
G1 X122.074 Y94.668 E0.01838
G1 X122.074 Y111.282 E0.52093
G1 X121.834 Y111.994 E0.02355
G1 X121.679 Y112.204 E0.00819
G1 X121.149 Y112.713 E0.02305
G1 X120.894 Y112.859 E0.00919
G1 X120.332 Y113.024 E0.01838
G1 X87.021 Y113.024 E1.04444
G1 X87.002 Y115.465 E0.07654
G1 X86.852 Y115.911 E0.01474
G1 X86.633 Y116.250 E0.01266
G1 X86.182 Y116.701 E0.02001
G1 X85.509 Y117.035 E0.02354
G1 X85.254 Y117.074 E0.00808
G1 X69.668 Y117.074 E0.48868
G1 X69.104 Y116.908 E0.01842
G1 X68.750 Y116.683 E0.01318
G1 X68.319 Y116.252 E0.01911
G1 X68.166 Y116.044 E0.00808
G1 X67.926 Y115.332 E0.02354
G1 X67.926 Y94.668 E0.64791
G1 X68.092 Y94.104 E0.01842
G1 X68.317 Y93.750 E0.01318
G1 X68.748 Y93.319 E0.01911
G1 X68.956 Y93.166 E0.00808
G1 X69.668 Y92.926 E0.02355
G1 X90.345 Y92.930 E0.64833
G1 X90.718 Y93.019 E0.01202
G1 X91.234 Y93.301 E0.01844
G1 X91.763 Y93.851 E0.02392
G1 X91.904 Y94.092 E0.00876
G1 X92.041 Y94.475 E0.01274
G1 X92.072 Y98.916 E0.13926
G1 F8640
G1 X95.364 Y98.929 E-0.76000
G1 E-0.04000 F2100.00000
G1 Z0.800 F10800.000
G1 X86.647 Y112.647
G1 Z0.200
G1 E0.80000 F2100.00000
G1 F1200
G1 X86.625 Y115.428 E0.08721
G1 X86.506 Y115.761 E0.01109
G1 X86.352 Y115.997 E0.00882
G1 X85.937 Y116.413 E0.01842
G1 X85.420 Y116.667 E0.01806
G1 X85.238 Y116.697 E0.00579
G1 X69.698 Y116.697 E0.48726
G1 X69.242 Y116.556 E0.01496
G1 X69.002 Y116.402 E0.00892
G1 X68.596 Y115.996 E0.01800
G1 X68.488 Y115.846 E0.00579
G1 X68.303 Y115.301 E0.01806
G1 X68.303 Y94.698 E0.64601
G1 X68.444 Y94.242 E0.01496
G1 X68.598 Y94.002 E0.00892
G1 X69.004 Y93.596 E0.01800
G1 X69.154 Y93.488 E0.00579
G1 X69.699 Y93.303 E0.01806
G1 X90.324 Y93.307 E0.64667
G1 X90.565 Y93.364 E0.00777
G1 X90.986 Y93.587 E0.01495
G1 X91.452 Y94.064 E0.02091
G1 X91.555 Y94.238 E0.00633
G1 X91.675 Y94.572 E0.01112
G1 X91.697 Y99.353 E0.14993
G1 X108.303 Y99.353 E0.52067
G1 X108.313 Y94.640 E0.14777
G1 X108.443 Y94.242 E0.01315
G1 X108.549 Y94.064 E0.00649
G1 X109.002 Y93.598 E0.02038
G1 X109.242 Y93.444 E0.00894
G1 X109.698 Y93.303 E0.01495
G1 X120.301 Y93.303 E0.33246
G1 X120.846 Y93.488 E0.01806
G1 X120.996 Y93.597 E0.00580
G1 X121.451 Y94.064 E0.02044
G1 X121.556 Y94.241 E0.00643
G1 X121.697 Y94.698 E0.01500
G1 X121.697 Y111.251 E0.51902
G1 X121.512 Y111.796 E0.01806
G1 X121.403 Y111.946 E0.00580
G1 X120.936 Y112.401 E0.02044
G1 X120.759 Y112.506 E0.00643
G1 X120.302 Y112.647 E0.01500
G1 X86.707 Y112.647 E1.05336
G1 X86.270 Y112.270 F10800.000
G1 F1200
G1 X86.259 Y115.332 E0.09601
G1 X86.158 Y115.613 E0.00936
G1 X86.072 Y115.744 E0.00492
G1 X85.693 Y116.124 E0.01682
G1 X85.329 Y116.301 E0.01270
G1 X85.221 Y116.320 E0.00345
G1 X69.729 Y116.320 E0.48572
G1 X69.385 Y116.207 E0.01136
G1 X69.256 Y116.122 E0.00484
G1 X68.875 Y115.742 E0.01686
G1 X68.812 Y115.652 E0.00345
G1 X68.680 Y115.269 E0.01270
G1 X68.680 Y94.729 E0.64401
G1 X68.793 Y94.385 E0.01136
G1 X68.878 Y94.256 E0.00484
G1 X69.258 Y93.875 E0.01686
G1 X69.348 Y93.812 E0.00345
G1 X69.731 Y93.680 E0.01269
G1 X90.302 Y93.684 E0.64499
G1 X90.416 Y93.711 E0.00369
G1 X90.741 Y93.875 E0.01142
G1 X91.144 Y94.282 E0.01795
G1 X91.207 Y94.385 E0.00379
G1 X91.309 Y94.668 E0.00943
G1 X91.320 Y99.730 E0.15872
G1 X108.680 Y99.730 E0.54431
G1 X108.680 Y94.729 E0.15680
G1 X108.794 Y94.383 E0.01144
G1 X108.856 Y94.282 E0.00371
G1 X109.256 Y93.877 E0.01785
G1 X109.385 Y93.793 E0.00482
G1 X109.729 Y93.680 E0.01136
G1 X120.269 Y93.680 E0.33047
