; generated by PrusaSlicer 2.1.1+win64 on 2020-02-17 at 11:30:56 UTC

; 

; external perimeters extrusion width = 0.45mm
; perimeters extrusion width = 0.45mm
; infill extrusion width = 0.45mm
; solid infill extrusion width = 0.45mm
; top infill extrusion width = 0.40mm
; first layer extrusion width = 0.42mm

M73 P0 R14
M73 Q0 S14
M201 X1000 Y1000 Z1000 E5000 ; sets maximum accelerations, mm/sec^2
M203 X200 Y200 Z12 E120 ; sets maximum feedrates, mm/sec
M204 P1250 R1250 T1250 ; sets acceleration (P, T) and retract acceleration (R), mm/sec^2
M205 X8.00 Y8.00 Z0.40 E1.50 ; sets the jerk limits, mm/sec
M205 S0 T0 ; sets the minimum extruding and travel feed rate, mm/sec
M107
M862.3 P "MK3S" ; printer model check
M862.1 P0.4 ; nozzle diameter check
M115 U3.8.1 ; tell printer latest fw version
G90 ; use absolute coordinates
M83 ; extruder relative mode
M104 S215 ; set extruder temp
M140 S60 ; set bed temp
M190 S60 ; wait for bed temp
M109 S215 ; wait for extruder temp
G28 W ; home all without mesh bed level
G80 ; mesh bed leveling
G1 Y-3.0 F1000.0 ; go outside print area
G92 E0.0
G1 X60.0 E9.0 F1000.0 ; intro line
M73 Q0 S14
M73 P0 R14
G1 X100.0 E12.5 F1000.0 ; intro line
G92 E0.0
M221 S95
G21 ; set units to millimeters
G90 ; use absolute coordinates
M83 ; use relative distances for extrusion
M900 K30 ; Filament gcode
;BEFORE_LAYER_CHANGE
G92 E0.0
;0.2


G1 E-0.80000 F2100.00000
G1 Z0.600 F10800.000
;AFTER_LAYER_CHANGE
;0.2
G1 X111.955 Y91.337
G1 Z0.200
G1 E0.80000 F2100.00000
M204 S1000
G1 F1200
G1 X112.876 Y90.703 E0.03508
G1 X113.907 Y90.269 E0.03508
G1 X115.005 Y90.055 E0.03508
G1 X134.506 Y90.032 E0.61142
G1 X135.471 Y90.119 E0.03039
G1 X136.401 Y90.373 E0.03021
G1 X137.271 Y90.786 E0.03021
G1 X138.060 Y91.350 E0.03039
G1 X138.733 Y92.039 E0.03021
G1 X139.277 Y92.841 E0.03039
G1 X139.670 Y93.721 E0.03021
G1 X139.903 Y94.661 E0.03039
G1 X139.968 Y95.484 E0.02588
G1 X139.962 Y114.754 E0.60419
G1 X139.859 Y115.585 E0.02624
G1 X139.629 Y116.395 E0.02642
G1 X139.279 Y117.156 E0.02624
G1 X138.818 Y117.854 E0.02624
G1 X137.988 Y118.711 E0.03742
G1 X136.991 Y119.367 E0.03742
G1 X135.876 Y119.792 E0.03742
G1 X134.695 Y119.964 E0.03742
G1 X115.223 Y119.961 E0.61053
G1 X114.398 Y119.856 E0.02606
G1 X113.599 Y119.627 E0.02606
G1 X112.839 Y119.277 E0.02624
G1 X112.146 Y118.818 E0.02606
G1 X111.289 Y117.988 E0.03742
G1 X110.633 Y116.991 E0.03742
G1 X110.208 Y115.876 E0.03742
G1 X110.036 Y114.695 E0.03742
G1 X110.039 Y95.223 E0.61053
G1 X110.144 Y94.398 E0.02606
G1 X110.373 Y93.599 E0.02606
G1 X110.723 Y92.839 E0.02624
G1 X111.182 Y92.146 E0.02606
G1 X111.913 Y91.381 E0.03320
G1 X112.185 Y91.645 F10800.000
G1 F1200
G1 X113.089 Y91.016 E0.03452
G1 X114.051 Y90.620 E0.03263
G1 X115.074 Y90.427 E0.03263
G1 X134.506 Y90.409 E0.60927
G1 X135.409 Y90.491 E0.02845
G1 X136.279 Y90.730 E0.02828
G1 X137.093 Y91.119 E0.02828
G1 X137.829 Y91.649 E0.02845
G1 X138.460 Y92.301 E0.02845
G1 X138.965 Y93.055 E0.02845
G1 X139.326 Y93.881 E0.02828
G1 X139.537 Y94.764 E0.02845
G1 X139.591 Y95.486 E0.02270
G1 X139.585 Y114.734 E0.60351
G1 X139.488 Y115.519 E0.02479
G1 X139.270 Y116.279 E0.02479
G1 X138.937 Y116.996 E0.02479
G1 X138.497 Y117.653 E0.02479
G1 X137.720 Y118.442 E0.03471
G1 X136.792 Y119.045 E0.03471
G1 X135.761 Y119.432 E0.03454
G1 X134.665 Y119.588 E0.03471
G1 X115.249 Y119.584 E0.60876
G1 X114.470 Y119.485 E0.02462
G1 X113.716 Y119.268 E0.02462
G1 X113.004 Y118.937 E0.02462
G1 X112.347 Y118.497 E0.02479
G1 X111.558 Y117.720 E0.03471
G1 X110.955 Y116.792 E0.03471
G1 X110.568 Y115.761 E0.03454
G1 X110.412 Y114.665 E0.03471
G1 X110.416 Y95.249 E0.60876
G1 X110.515 Y94.470 E0.02462
G1 X110.732 Y93.716 E0.02462
G1 X111.063 Y93.004 E0.02462
G1 X111.503 Y92.347 E0.02479
G1 X112.143 Y91.688 E0.02881
G1 X113.040 Y91.429 F10800.000
G1 F1200
G1 X114.954 Y90.786 E0.06332
G1 X134.987 Y90.790 E0.62811
G1 X135.935 Y90.974 E0.03028
G1 X136.843 Y91.365 E0.03101
G1 X138.062 Y92.388 E0.04990
G1 X138.853 Y93.606 E0.04551
G1 X139.213 Y94.989 E0.04481
G1 X139.213 Y115.010 E0.62776
G1 X138.882 Y116.327 E0.04257
G1 X138.155 Y117.511 E0.04355
G1 X137.551 Y118.115 E0.02678
G1 X136.960 Y118.571 E0.02340
G1 X135.047 Y119.213 E0.06330
G1 X114.990 Y119.213 E0.62886
G1 X113.673 Y118.882 E0.04257
G1 X112.489 Y118.155 E0.04355
G1 X111.885 Y117.551 E0.02678
G1 X111.429 Y116.960 E0.02340
G1 X110.787 Y115.047 E0.06330
G1 X110.787 Y94.990 E0.62886
G1 X111.118 Y93.673 E0.04257
G1 X111.845 Y92.489 E0.04355
G1 X112.449 Y91.885 E0.02678
G1 X112.992 Y91.466 E0.02152
G1 X113.222 Y91.765 F10800.000
G1 F1200
G1 X114.984 Y91.164 E0.05839
G1 X134.968 Y91.167 E0.62657
G1 X135.841 Y91.340 E0.02791
G1 X136.666 Y91.699 E0.02823
G1 X137.797 Y92.658 E0.04647
G1 X138.496 Y93.732 E0.04018
G1 X138.836 Y95.013 E0.04157
G1 X138.836 Y114.986 E0.62622
G1 X138.524 Y116.205 E0.03946
G1 X137.873 Y117.259 E0.03885
G1 X137.294 Y117.839 E0.02571
G1 X136.756 Y118.252 E0.02127
G1 X135.016 Y118.836 E0.05754
G1 X115.014 Y118.836 E0.62714
G1 X113.795 Y118.524 E0.03946
G1 X112.741 Y117.873 E0.03885
G1 X112.161 Y117.294 E0.02571
G1 X111.748 Y116.756 E0.02127
G1 X111.164 Y115.016 E0.05754
G1 X111.164 Y95.014 E0.62714
G1 X111.476 Y93.795 E0.03946
G1 X112.127 Y92.741 E0.03885
G1 X112.706 Y92.161 E0.02571
G1 X113.174 Y91.802 E0.01849
G1 X113.403 Y92.101 F10800.000
G1 F1200
G1 X113.448 Y92.066 E0.00179
G1 X115.015 Y91.541 E0.05180
G1 X134.949 Y91.544 E0.62501
G1 X135.746 Y91.705 E0.02549
G1 X136.488 Y92.033 E0.02545
G1 X137.530 Y92.926 E0.04302
G1 X138.163 Y93.910 E0.03669
G1 X138.459 Y95.038 E0.03655
G1 X138.459 Y114.962 E0.62473
G1 X138.187 Y116.033 E0.03463
G1 X137.591 Y117.009 E0.03586
G1 X137.036 Y117.563 E0.02460
G1 X136.552 Y117.934 E0.01912
G1 X134.985 Y118.459 E0.05179
G1 X115.038 Y118.459 E0.62545
G1 X113.967 Y118.187 E0.03463
G1 X112.991 Y117.591 E0.03586
G1 X112.437 Y117.036 E0.02460
G1 X112.066 Y116.552 E0.01912
G1 X111.541 Y114.985 E0.05179
G1 X111.541 Y95.038 E0.62545
G1 X111.813 Y93.967 E0.03463
G1 X112.409 Y92.991 E0.03586
G1 X112.964 Y92.437 E0.02460
G1 X113.355 Y92.137 E0.01544
G1 X113.652 Y92.385 F10800.000
G1 F1200
G1 X115.045 Y91.918 E0.04608
G1 X134.929 Y91.921 E0.62343
G1 X135.648 Y92.070 E0.02304
G1 X136.308 Y92.365 E0.02266
G1 X137.262 Y93.192 E0.03960
G1 X137.806 Y94.037 E0.03149
G1 X138.082 Y95.063 E0.03331
G1 X138.082 Y114.938 E0.62317
G1 X137.829 Y115.910 E0.03149
G1 X137.308 Y116.758 E0.03119
G1 X136.778 Y117.288 E0.02350
G1 X136.348 Y117.615 E0.01695
G1 X134.955 Y118.082 E0.04607
G1 X115.062 Y118.082 E0.62373
G1 X114.090 Y117.829 E0.03149
G1 X113.242 Y117.308 E0.03119
G1 X112.712 Y116.778 E0.02350
G1 X112.385 Y116.348 E0.01695
G1 X111.918 Y114.955 E0.04607
G1 X111.918 Y95.062 E0.62373
G1 X112.171 Y94.090 E0.03149
G1 X112.691 Y93.242 E0.03119
G1 X113.222 Y92.712 E0.02350
G1 X113.604 Y92.421 E0.01507
G1 X113.831 Y92.722 F10800.000
G1 F1200
G1 X115.076 Y92.295 E0.04126
G1 X134.910 Y92.298 E0.62188
G1 X135.513 Y92.423 E0.01932
G1 X136.128 Y92.697 E0.02110
G1 X136.992 Y93.457 E0.03609
G1 X137.472 Y94.214 E0.02809
G1 X137.705 Y95.087 E0.02835
G1 X137.705 Y114.913 E0.62162
G1 X137.473 Y115.785 E0.02831
G1 X137.027 Y116.506 E0.02658
G1 X136.521 Y117.012 E0.02241
G1 X136.145 Y117.296 E0.01477
G1 X134.924 Y117.705 E0.04038
G1 X115.087 Y117.705 E0.62198
G1 X114.215 Y117.473 E0.02831
G1 X113.494 Y117.027 E0.02658
G1 X112.988 Y116.521 E0.02241
G1 X112.704 Y116.145 E0.01477
G1 X112.295 Y114.924 E0.04038
G1 X112.295 Y95.087 E0.62198
G1 X112.527 Y94.215 E0.02831
G1 X112.973 Y93.494 E0.02658
G1 X113.479 Y92.988 E0.02241
G1 X113.783 Y92.758 E0.01198
G1 F8640
G1 X115.076 Y92.295 E-0.31701
G1 X116.994 Y92.295 E-0.44299
G1 E-0.04000 F2100.00000
G1 Z0.800 F10800.000
G1 X115.106 Y92.672
G1 Z0.200
G1 E0.80000 F2100.00000
G1 F1200
G1 X134.889 Y92.676 E0.62028
G1 X135.414 Y92.787 E0.01681
G1 X135.945 Y93.028 E0.01829
G1 X136.722 Y93.721 E0.03263
G1 X137.116 Y94.341 E0.02306
G1 X137.328 Y95.113 E0.02510
G1 X137.328 Y114.887 E0.61999
G1 X137.117 Y115.658 E0.02508
G1 X136.745 Y116.255 E0.02203
G1 X136.264 Y116.735 E0.02132
G1 X135.944 Y116.976 E0.01257
G1 X134.894 Y117.328 E0.03472
G1 X115.113 Y117.328 E0.62021
G1 X114.342 Y117.117 E0.02508
G1 X113.745 Y116.745 E0.02203
G1 X113.265 Y116.264 E0.02132
G1 X113.024 Y115.944 E0.01257
G1 X112.672 Y114.894 E0.03472
G1 X112.672 Y95.113 E0.62021
G1 X112.883 Y94.342 E0.02508
G1 X113.255 Y93.745 E0.02203
G1 X113.736 Y93.265 E0.02132
G1 X114.056 Y93.024 E0.01257
G1 X115.050 Y92.691 E0.03285
G1 X115.137 Y93.049 F10800.000
G1 F1200
G1 X134.868 Y93.053 E0.61865
G1 X135.311 Y93.150 E0.01423
G1 X135.759 Y93.358 E0.01548
G1 X136.450 Y93.983 E0.02920
G1 X136.762 Y94.471 E0.01818
G1 X136.951 Y95.140 E0.02179
G1 X136.951 Y114.860 E0.61830
G1 X136.762 Y115.529 E0.02179
G1 X136.464 Y116.003 E0.01755
G1 X136.008 Y116.459 E0.02022
G1 X135.743 Y116.655 E0.01034
G1 X134.863 Y116.951 E0.02911
G1 X115.140 Y116.951 E0.61840
G1 X114.471 Y116.762 E0.02179
G1 X113.997 Y116.464 E0.01755
G1 X113.541 Y116.008 E0.02022
G1 X113.345 Y115.743 E0.01034
G1 X113.049 Y114.863 E0.02911
G1 X113.049 Y95.140 E0.61840
G1 X113.238 Y94.471 E0.02179
G1 X113.536 Y93.997 E0.01755
G1 X113.992 Y93.541 E0.02022
G1 X114.257 Y93.345 E0.01034
G1 X115.080 Y93.068 E0.02723
G1 X115.168 Y93.426 F10800.000
G1 F1200
G1 X134.846 Y93.430 E0.61699
G1 X135.205 Y93.513 E0.01157
G1 X135.571 Y93.685 E0.01268
G1 X136.176 Y94.243 E0.02580
G1 X136.408 Y94.605 E0.01347
G1 X136.574 Y95.168 E0.01841
G1 X136.574 Y114.832 E0.61655
G1 X136.408 Y115.396 E0.01842
G1 X136.183 Y115.750 E0.01318
G1 X135.752 Y116.181 E0.01911
G1 X135.544 Y116.334 E0.00808
G1 X134.832 Y116.574 E0.02354
G1 X115.168 Y116.574 E0.61656
G1 X114.604 Y116.408 E0.01842
G1 X114.250 Y116.183 E0.01318
G1 X113.819 Y115.752 E0.01911
G1 X113.666 Y115.544 E0.00808
G1 X113.426 Y114.832 E0.02354
G1 X113.426 Y95.168 E0.61656
G1 X113.592 Y94.604 E0.01842
G1 X113.817 Y94.250 E0.01318
G1 X114.248 Y93.819 E0.01911
G1 X114.456 Y93.666 E0.00808
G1 X115.111 Y93.445 E0.02167
G1 X114.654 Y93.988 F10800.000
G1 F1200
G1 X115.199 Y93.803 E0.01806
G1 X134.824 Y93.807 E0.61533
G1 X135.062 Y93.862 E0.00767
G1 X135.382 Y94.013 E0.01109
G1 X135.901 Y94.501 E0.02233
G1 X136.056 Y94.742 E0.00898
G1 X136.197 Y95.198 E0.01495
G1 X136.197 Y114.802 E0.61469
G1 X136.056 Y115.258 E0.01496
G1 X135.902 Y115.498 E0.00892
G1 X135.496 Y115.904 E0.01800
G1 X135.346 Y116.012 E0.00579
G1 X134.801 Y116.197 E0.01806
G1 X115.198 Y116.197 E0.61465
G1 X114.742 Y116.056 E0.01496
G1 X114.502 Y115.902 E0.00892
G1 X114.096 Y115.496 E0.01800
G1 X113.988 Y115.346 E0.00579
G1 X113.803 Y114.801 E0.01806
G1 X113.803 Y95.198 E0.61465
G1 X113.944 Y94.742 E0.01496
G1 X114.098 Y94.502 E0.00892
G1 X114.504 Y94.096 E0.01800
G1 X114.605 Y94.024 E0.00391
G1 X114.848 Y94.312 F10800.000
G1 F1200
G1 X115.231 Y94.180 E0.01269
G1 X134.802 Y94.184 E0.61364
G1 X134.919 Y94.211 E0.00377
G1 X135.192 Y94.340 E0.00947
G1 X135.623 Y94.757 E0.01880
G1 X135.707 Y94.885 E0.00479
G1 X135.820 Y95.229 E0.01136
G1 X135.820 Y114.771 E0.61271
M73 Q7 S13
M73 P7 R13
G1 X135.707 Y115.115 E0.01136
G1 X135.622 Y115.244 E0.00484
G1 X135.242 Y115.625 E0.01686
G1 X135.152 Y115.688 E0.00345
G1 X134.769 Y115.820 E0.01270
G1 X115.229 Y115.820 E0.61266
G1 X114.885 Y115.707 E0.01136
G1 X114.756 Y115.622 E0.00484
G1 X114.375 Y115.242 E0.01686
G1 X114.312 Y115.152 E0.00345
G1 X114.180 Y114.769 E0.01270
G1 X114.180 Y95.229 E0.61266
G1 X114.293 Y94.885 E0.01136
G1 X114.378 Y94.756 E0.00484
G1 X114.799 Y94.347 E0.01841
G1 X115.037 Y94.639 F10800.000
G1 F1200
G1 X115.264 Y94.557 E0.00757
G1 X134.750 Y94.557 E0.61095
G1 X135.000 Y94.667 E0.00856
G1 X135.343 Y95.010 E0.01522
G1 X135.443 Y95.264 E0.00856
G1 X135.443 Y114.736 E0.61050
G1 X135.343 Y114.990 E0.00856
G1 X134.990 Y115.343 E0.01566
G1 X134.736 Y115.443 E0.00856
G1 X115.264 Y115.443 E0.61050
G1 X115.010 Y115.343 E0.00856
G1 X114.657 Y114.990 E0.01566
G1 X114.557 Y114.736 E0.00856
G1 X114.557 Y95.264 E0.61050
G1 X114.657 Y95.010 E0.00856
G1 X114.991 Y94.676 E0.01480
G1 X115.237 Y94.963 F10800.000
G1 F1200
G1 X115.306 Y94.934 E0.00235
G1 X134.694 Y94.934 E0.60788
G1 X134.763 Y94.963 E0.00235
G1 X135.037 Y95.237 E0.01215
G1 X135.066 Y95.306 E0.00235
G1 X135.066 Y114.694 E0.60788
G1 X135.037 Y114.763 E0.00235
G1 X134.763 Y115.037 E0.01215
G1 X134.694 Y115.066 E0.00235
G1 X115.306 Y115.066 E0.60788
G1 X115.237 Y115.037 E0.00235
G1 X114.963 Y114.763 E0.01215
G1 X114.934 Y114.694 E0.00235
G1 X114.934 Y95.306 E0.60788
G1 X114.963 Y95.237 E0.00235
G1 X115.195 Y95.006 E0.01027
G1 X115.422 Y95.311 F10800.000
G1 F1200
G1 X134.578 Y95.311 E0.60063
G1 X134.689 Y95.422 E0.00490
G1 X134.689 Y114.578 E0.60063
G1 X134.578 Y114.689 E0.00490
G1 X115.422 Y114.689 E0.60063
G1 X115.311 Y114.578 E0.00490
G1 X115.311 Y95.422 E0.60063
G1 X115.379 Y95.354 E0.00302
G1 X115.710 Y95.710 F10800.000
G1 F1200
G1 X134.290 Y95.710 E0.58256
G1 X134.290 Y114.290 E0.58256
G1 X115.710 Y114.290 E0.58256
G1 X115.710 Y95.770 E0.58068
G1 X116.096 Y95.814 F10800.000
G1 X116.087 Y96.087
G1 F1200
G1 X133.913 Y96.087 E0.55892
G1 X133.913 Y113.913 E0.55892
G1 X116.087 Y113.913 E0.55892
G1 X116.087 Y96.147 E0.55704
G1 F8640
G1 X119.378 Y96.136 E-0.76000
G1 E-0.04000 F2100.00000
G1 Z0.800 F10800.000
G1 X122.522 Y103.200
G1 Z0.200
G1 E0.80000 F2100.00000
G1 F1200
G1 X123.200 Y102.522 E0.03004
G1 X124.054 Y102.087 E0.03004
G1 X124.970 Y101.942 E0.02908
G1 X125.945 Y102.087 E0.03093
G1 X126.801 Y102.523 E0.03011
G1 X127.492 Y103.227 E0.03093
G1 X127.913 Y104.054 E0.02908
G1 X128.063 Y105.000 E0.03004
G1 X127.913 Y105.946 E0.03004
G1 X127.478 Y106.800 E0.03004
G1 X126.800 Y107.478 E0.03004
G1 X125.946 Y107.913 E0.03004
G1 X125.000 Y108.063 E0.03004
G1 X124.054 Y107.913 E0.03004
G1 X123.227 Y107.492 E0.02908
G1 X122.523 Y106.801 E0.03093
G1 X122.087 Y105.946 E0.03008
G1 X121.937 Y105.000 E0.03004
G1 X122.087 Y104.054 E0.03004
G1 X122.495 Y103.253 E0.02816
G1 X122.360 Y102.834 F10800.000
G1 X122.213 Y102.975
G1 F1200
G1 X122.975 Y102.213 E0.03379
G1 X123.936 Y101.724 E0.03379
G1 X124.968 Y101.561 E0.03276
G1 X126.062 Y101.723 E0.03468
G1 X127.027 Y102.215 E0.03398
G1 X127.801 Y103.005 E0.03468
G1 X128.276 Y103.936 E0.03276
G1 X128.444 Y105.000 E0.03379
G1 X128.276 Y106.064 E0.03379
G1 X127.787 Y107.025 E0.03379
G1 X127.025 Y107.787 E0.03379
G1 X126.064 Y108.276 E0.03379
G1 X125.000 Y108.444 E0.03379
G1 X123.936 Y108.276 E0.03379
G1 X123.005 Y107.801 E0.03276
G1 X122.215 Y107.027 E0.03468
G1 X121.724 Y106.064 E0.03388
G1 X121.556 Y105.000 E0.03379
G1 X121.724 Y103.936 E0.03379
G1 X122.186 Y103.029 E0.03191
G1 F8640
G1 X122.975 Y102.213 E-0.26204
G1 X123.936 Y101.724 E-0.24883
G1 X124.968 Y101.561 E-0.24127
G1 X125.001 Y101.566 E-0.00785
G1 E-0.04000 F2100.00000
G1 Z0.800 F10800.000
G1 X124.409 Y109.681
G1 Z0.200
G1 E0.80000 F2100.00000
G1 F1200
G1 X124.981 Y109.590 E0.01817
G1 X125.590 Y109.681 E0.01929
G1 X126.124 Y109.953 E0.01880
G1 X126.547 Y110.376 E0.01876
G1 X126.819 Y110.909 E0.01876
G1 X126.913 Y111.500 E0.01876
G1 X126.819 Y112.091 E0.01876
G1 X126.547 Y112.624 E0.01876
G1 X126.124 Y113.047 E0.01876
G1 X125.591 Y113.319 E0.01876
G1 X125.000 Y113.413 E0.01876
G1 X124.408 Y113.319 E0.01880
G1 X123.862 Y113.034 E0.01929
G1 X123.453 Y112.624 E0.01817
G1 X123.181 Y112.091 E0.01876
G1 X123.087 Y111.500 E0.01876
G1 X123.181 Y110.909 E0.01876
G1 X123.453 Y110.376 E0.01876
G1 X123.876 Y109.953 E0.01876
G1 X124.356 Y109.708 E0.01688
G1 X124.492 Y109.290 F10800.000
G1 X124.291 Y109.318
G1 F1200
G1 X124.980 Y109.209 E0.02186
G1 X125.706 Y109.317 E0.02304
G1 X126.349 Y109.644 E0.02260
G1 X126.856 Y110.151 E0.02251
G1 X127.182 Y110.791 E0.02251
G1 X127.294 Y111.500 E0.02251
G1 X127.182 Y112.209 E0.02251
G1 X126.856 Y112.849 E0.02251
G1 X126.349 Y113.356 E0.02251
G1 X125.709 Y113.682 E0.02251
G1 X125.000 Y113.794 E0.02251
G1 X124.288 Y113.682 E0.02260
G1 X123.637 Y113.342 E0.02304
G1 X123.144 Y112.849 E0.02186
G1 X122.818 Y112.209 E0.02251
G1 X122.706 Y111.500 E0.02251
G1 X122.818 Y110.791 E0.02251
G1 X123.144 Y110.151 E0.02251
G1 X123.651 Y109.644 E0.02251
G1 X124.238 Y109.345 E0.02063
G1 X124.610 Y109.153 F10800.000
G1 F1200
